;FLAVOR:Marlin
;TIME:2959
;Filament used: 2.26032m
;Layer height: 0.28
;MINX:84.654
;MINY:91.736
;MINZ:0.28
;MAXX:150.343
;MAXY:143.264
;MAXZ:35.28
;Generated with Cura_SteamEngine 5.2.2
M140 S50
M105
M190 S50
M104 S200
M105
M109 S200
M82 ;absolute extrusion mode
; Ender 3 Custom Start G-code
G92 E0 ; Reset Extruder
G28 ; Home all axes
G1 Z2.0 F3000 ; Move Z Axis up little to prevent scratching of Heat Bed
G1 X0.1 Y20 Z0.3 F5000.0 ; Move to start position
G1 X0.1 Y200.0 Z0.3 F1500.0 E15 ; Draw the first line
G1 X0.4 Y200.0 Z0.3 F5000.0 ; Move to side a little
G1 X0.4 Y20 Z0.3 F1500.0 E30 ; Draw the second line
G92 E0 ; Reset Extruder
G1 Z2.0 F3000 ; Move Z Axis up little to prevent scratching of Heat Bed
G1 X5 Y20 Z0.3 F5000.0 ; Move over to prevent blob squish
G92 E0
G92 E0
G1 F2700 E-5
;LAYER_COUNT:126
;LAYER:0
M107
G0 F6000 X88.486 Y94.402 Z0.28
;TYPE:SKIRT
G1 F2700 E0
G1 F1200 X89.223 Y93.822 E0.04367
G1 X90.007 Y93.306 E0.08737
G1 X90.831 Y92.859 E0.13103
G1 X91.691 Y92.485 E0.17469
G1 X92.58 Y92.184 E0.2184
G1 X93.491 Y91.961 E0.26207
G1 X94.417 Y91.816 E0.30571
G1 X95.46 Y91.748 E0.35438
G1 X96.221 Y91.736 E0.38982
G1 X97.162 Y91.737 E0.43364
G1 X97.863 Y91.747 E0.46628
G1 X98.799 Y91.8 E0.50994
G1 X99.743 Y91.936 E0.55435
G1 X101.216 Y92.214 E0.62415
G1 X103.708 Y92.64 E0.74187
G1 X106.203 Y92.995 E0.85922
G1 X108.736 Y93.283 E0.97792
G1 X111.225 Y93.495 E1.09424
G1 X113.709 Y93.636 E1.21009
G1 X116.267 Y93.708 E1.32925
G1 X118.755 Y93.708 E1.4451
G1 X121.313 Y93.636 E1.56426
G1 X123.797 Y93.495 E1.68011
G1 X126.29 Y93.283 E1.79662
G1 X128.798 Y92.998 E1.91415
G1 X131.303 Y92.642 E2.03197
G1 X134.569 Y92.069 E2.18637
G1 X135.16 Y91.954 E2.2144
G1 X136.087 Y91.815 E2.25805
G1 X137.053 Y91.755 E2.30312
G1 X138.288 Y91.736 E2.36063
G1 X139.442 Y91.746 E2.41437
G1 X140.379 Y91.795 E2.45806
G1 X141.308 Y91.922 E2.50172
G1 X142.223 Y92.129 E2.5454
G1 X143.117 Y92.412 E2.58907
G1 X143.984 Y92.771 E2.63276
G1 X144.816 Y93.202 E2.67639
G1 X145.609 Y93.703 E2.72007
G1 X146.357 Y94.269 E2.76375
G1 X147.054 Y94.897 E2.80744
G1 X147.694 Y95.582 E2.85109
G1 X148.274 Y96.319 E2.89476
G1 X148.789 Y97.103 E2.93844
G1 X149.236 Y97.928 E2.98213
G1 X149.61 Y98.788 E3.0258
G1 X149.91 Y99.676 E3.06944
G1 X150.133 Y100.587 E3.11311
G1 X150.278 Y101.514 E3.1568
G1 X150.343 Y102.449 E3.20045
G1 X150.328 Y103.387 E3.24413
G1 X150.234 Y104.32 E3.28779
G1 X150.021 Y105.404 E3.33923
G1 X149.898 Y105.898 E3.36294
G1 X147.983 Y113.051 E3.70774
G1 X147.328 Y115.643 E3.83223
G1 X146.782 Y118.095 E3.9492
G1 X146.295 Y120.608 E4.0684
G1 X145.895 Y123.046 E4.18344
G1 X145.556 Y125.555 E4.30133
G1 X145.291 Y128.044 E4.41788
G1 X145.092 Y130.591 E4.53684
G1 X144.975 Y132.829 E4.64119
G1 X144.886 Y133.762 E4.68484
G1 X144.718 Y134.685 E4.72852
G1 X144.472 Y135.59 E4.77219
G1 X144.15 Y136.471 E4.81587
G1 X143.754 Y137.321 E4.85953
G1 X143.287 Y138.134 E4.90319
G1 X142.752 Y138.905 E4.94689
G1 X142.154 Y139.627 E4.99054
G1 X141.496 Y140.296 E5.03423
G1 X140.784 Y140.906 E5.07789
G1 X140.022 Y141.453 E5.12157
G1 X139.217 Y141.934 E5.16524
G1 X138.373 Y142.344 E5.20893
G1 X137.498 Y142.681 E5.25259
G1 X136.597 Y142.942 E5.29627
G1 X135.678 Y143.125 E5.3399
G1 X134.299 Y143.251 E5.40438
G1 X133.67 Y143.264 E5.43367
G1 X101.565 Y143.263 E6.92862
G1 X100.867 Y143.254 E6.96112
G1 X99.931 Y143.202 E7.00477
G1 X99.002 Y143.07 E7.04847
G1 X98.088 Y142.86 E7.09213
G1 X97.195 Y142.573 E7.13581
G1 X96.33 Y142.21 E7.17949
G1 X95.499 Y141.776 E7.22315
G1 X94.708 Y141.272 E7.26682
G1 X93.963 Y140.702 E7.3105
G1 X93.269 Y140.071 E7.35418
G1 X92.632 Y139.384 E7.3978
G1 X92.055 Y138.644 E7.44149
G1 X91.543 Y137.858 E7.48517
G1 X91.1 Y137.031 E7.52886
G1 X90.729 Y136.17 E7.57252
G1 X90.433 Y135.28 E7.61619
G1 X90.214 Y134.368 E7.65986
G1 X90.073 Y133.441 E7.70352
G1 X90.027 Y132.881 E7.72969
G1 X89.928 Y131 E7.8174
G1 X89.745 Y128.489 E7.93463
G1 X89.492 Y125.987 E8.05173
G1 X89.169 Y123.503 E8.16837
G1 X88.768 Y120.985 E8.28709
G1 X88.306 Y118.52 E8.40387
G1 X87.783 Y116.11 E8.5187
G1 X87.021 Y113.067 E8.66477
G1 X85.209 Y106.304 E8.99079
G1 X84.99 Y105.442 E9.03221
G1 X84.799 Y104.524 E9.07587
G1 X84.687 Y103.593 E9.11953
G1 X84.654 Y102.655 E9.16324
G1 X84.702 Y101.719 E9.20688
G1 X84.829 Y100.79 E9.25054
G1 X85.035 Y99.875 E9.29421
G1 X85.319 Y98.98 E9.33793
G1 X85.677 Y98.114 E9.38157
G1 X86.108 Y97.281 E9.42524
G1 X86.608 Y96.487 E9.46893
G1 X87.174 Y95.74 E9.51257
G1 X87.802 Y95.043 E9.55626
G1 X88.486 Y94.402 E9.59991
G0 F6000 X88.915 Y94.564
G1 F1200 X89.651 Y94.01 E9.6428
G1 X90.431 Y93.522 E9.68565
G1 X91.251 Y93.104 E9.7285
G1 X92.105 Y92.758 E9.77141
G1 X92.985 Y92.488 E9.81427
G1 X93.885 Y92.295 E9.85713
G1 X94.799 Y92.181 E9.90002
G1 X95.467 Y92.148 E9.93116
G1 X96.221 Y92.136 E9.96628
G1 X97.005 Y92.136 E10.00278
G1 X97.857 Y92.147 E10.04246
G1 X98.776 Y92.2 E10.08532
G1 X99.669 Y92.329 E10.12734
G1 X101.131 Y92.604 E10.19661
G1 X103.656 Y93.037 E10.3159
G1 X106.173 Y93.395 E10.43428
G1 X108.655 Y93.677 E10.5506
G1 X111.206 Y93.894 E10.66981
G1 X113.711 Y94.036 E10.78664
G1 X116.256 Y94.108 E10.90519
G1 X118.766 Y94.108 E11.02207
G1 X121.311 Y94.036 E11.14062
G1 X123.816 Y93.894 E11.25745
G1 X126.371 Y93.676 E11.37686
G1 X128.828 Y93.398 E11.492
G1 X131.367 Y93.037 E11.61141
G1 X134.602 Y92.469 E11.76435
G1 X135.236 Y92.346 E11.79442
G1 X136.146 Y92.211 E11.83726
G1 X137.06 Y92.155 E11.8799
G1 X138.285 Y92.136 E11.93695
G1 X139.439 Y92.146 E11.99069
G1 X140.358 Y92.194 E12.03354
G1 X141.27 Y92.322 E12.07642
G1 X142.167 Y92.528 E12.11927
G1 X143.043 Y92.811 E12.16214
G1 X143.891 Y93.17 E12.20502
G1 X144.705 Y93.6 E12.24789
G1 X145.479 Y94.099 E12.29077
G1 X146.206 Y94.664 E12.33364
G1 X146.881 Y95.29 E12.37651
G1 X147.5 Y95.972 E12.41939
G1 X148.057 Y96.705 E12.46226
G1 X148.548 Y97.483 E12.5051
G1 X148.97 Y98.301 E12.54796
G1 X149.32 Y99.153 E12.59085
G1 X149.594 Y100.032 E12.63372
G1 X149.791 Y100.931 E12.67658
G1 X149.909 Y101.845 E12.71949
G1 X149.947 Y102.764 E12.76232
G1 X149.905 Y103.684 E12.8052
G1 X149.784 Y104.597 E12.84809
G1 X149.633 Y105.307 E12.88189
G1 X149.463 Y105.983 E12.91434
G1 X147.577 Y113.026 E13.25385
G1 X146.935 Y115.563 E13.37571
G1 X146.392 Y118.004 E13.49215
G1 X145.902 Y120.533 E13.6121
G1 X145.497 Y123.005 E13.72874
G1 X145.16 Y125.495 E13.84574
G1 X144.892 Y128.006 E13.96333
G1 X144.695 Y130.537 E14.08154
G1 X144.576 Y132.808 E14.18743
G1 X144.488 Y133.724 E14.23028
G1 X144.321 Y134.63 E14.27318
G1 X144.076 Y135.517 E14.31603
G1 X143.754 Y136.38 E14.35892
G1 X143.36 Y137.212 E14.40179
G1 X142.894 Y138.006 E14.44466
G1 X142.362 Y138.757 E14.48751
G1 X141.766 Y139.459 E14.53039
G1 X141.111 Y140.106 E14.57326
G1 X140.403 Y140.695 E14.61614
G1 X139.647 Y141.219 E14.65898
G1 X138.848 Y141.676 E14.70184
G1 X138.012 Y142.062 E14.74471
G1 X137.145 Y142.374 E14.78762
G1 X136.256 Y142.61 E14.83045
G1 X135.348 Y142.768 E14.87336
G1 X134.288 Y142.851 E14.92287
G1 X133.67 Y142.864 E14.95166
G1 X101.57 Y142.863 E16.44637
G1 X100.872 Y142.854 E16.47887
G1 X99.953 Y142.802 E16.52173
G1 X99.042 Y142.671 E16.56459
G1 X98.146 Y142.461 E16.60744
G1 X97.271 Y142.174 E16.65032
G1 X96.424 Y141.812 E16.69321
G1 X95.612 Y141.378 E16.73608
G1 X94.841 Y140.876 E16.77892
G1 X94.116 Y140.308 E16.82181
G1 X93.443 Y139.679 E16.8647
G1 X92.828 Y138.995 E16.90753
G1 X92.274 Y138.26 E16.95039
G1 X91.786 Y137.479 E16.99327
G1 X91.367 Y136.659 E17.03615
G1 X91.021 Y135.806 E17.07902
G1 X90.751 Y134.926 E17.12188
G1 X90.558 Y134.025 E17.16478
G1 X90.426 Y132.859 E17.21942
G1 X90.353 Y131.569 E17.27959
G1 X90.326 Y130.954 E17.30825
G1 X90.144 Y128.456 E17.42488
G1 X89.888 Y125.928 E17.54319
G1 X89.567 Y123.46 E17.65908
G1 X89.163 Y120.92 E17.77884
G1 X88.696 Y118.432 E17.89672
G1 X88.174 Y116.025 E18.0114
G1 X87.404 Y112.953 E18.15887
G1 X85.557 Y106.056 E18.49134
G1 X85.377 Y105.344 E18.52554
G1 X85.191 Y104.443 E18.56838
G1 X85.083 Y103.528 E18.61128
G1 X85.055 Y102.608 E18.65414
G1 X85.107 Y101.689 E18.697
G1 X85.238 Y100.778 E18.73986
G1 X85.448 Y99.881 E18.78275
G1 X85.736 Y99.006 E18.82565
G1 X86.097 Y98.16 E18.86848
G1 X86.531 Y97.348 E18.91135
G1 X87.034 Y96.577 E18.95421
G1 X87.602 Y95.852 E18.9971
G1 X88.231 Y95.179 E19.03999
G1 X88.915 Y94.564 E19.08283
G0 F6000 X89.344 Y94.732
G1 F1200 X90.077 Y94.205 E19.12486
G1 X90.855 Y93.746 E19.16692
G1 X91.67 Y93.356 E19.209
G1 X92.516 Y93.041 E19.25103
G1 X93.386 Y92.801 E19.29306
G1 X94.275 Y92.64 E19.33512
G1 X95.474 Y92.548 E19.39112
G1 X96.221 Y92.536 E19.42591
G1 X97.005 Y92.536 E19.46241
G1 X97.851 Y92.547 E19.50181
G1 X98.753 Y92.6 E19.54388
G1 X99.595 Y92.722 E19.5835
G1 X101.055 Y92.997 E19.65268
G1 X103.603 Y93.433 E19.77305
G1 X106.103 Y93.789 E19.89063
G1 X108.648 Y94.078 E20.0099
G1 X111.15 Y94.291 E20.12683
G1 X113.711 Y94.436 E20.24627
G1 X116.245 Y94.508 E20.36431
G1 X118.777 Y94.508 E20.48221
G1 X121.311 Y94.436 E20.60025
G1 X123.872 Y94.291 E20.71969
G1 X126.379 Y94.078 E20.83685
G1 X128.933 Y93.788 E20.95654
G1 X131.398 Y93.438 E21.07247
G1 X134.691 Y92.859 E21.22816
G1 X135.312 Y92.739 E21.25761
G1 X136.205 Y92.607 E21.29964
G1 X137.067 Y92.555 E21.33986
G1 X138.281 Y92.536 E21.39639
G1 X139.435 Y92.546 E21.45013
G1 X140.337 Y92.594 E21.49219
G1 X141.231 Y92.722 E21.53424
G1 X142.111 Y92.928 E21.57633
G1 X142.968 Y93.21 E21.61834
G1 X143.798 Y93.568 E21.66043
G1 X144.592 Y93.998 E21.70247
G1 X145.345 Y94.496 E21.74451
G1 X146.051 Y95.059 E21.78656
G1 X146.705 Y95.682 E21.82862
G1 X147.301 Y96.361 E21.87068
G1 X147.835 Y97.089 E21.91272
G1 X148.302 Y97.862 E21.95478
G1 X148.699 Y98.673 E21.99682
G1 X149.022 Y99.516 E22.03886
G1 X149.27 Y100.385 E22.08094
G1 X149.44 Y101.272 E22.12299
G1 X149.531 Y102.17 E22.16502
G1 X149.542 Y103.073 E22.20707
G1 X149.473 Y103.974 E22.24915
G1 X149.245 Y105.21 E22.30767
G1 X149.077 Y105.879 E22.33979
G1 X147.182 Y112.954 E22.68085
G1 X146.551 Y115.45 E22.80073
G1 X145.995 Y117.947 E22.91985
G1 X145.514 Y120.43 E23.03761
G1 X145.1 Y122.953 E23.15667
G1 X144.76 Y125.471 E23.27498
G1 X144.494 Y127.969 E23.39195
G1 X144.294 Y130.524 E23.51129
G1 X144.176 Y132.787 E23.61681
G1 X144.089 Y133.686 E23.65886
G1 X143.923 Y134.574 E23.70093
G1 X143.679 Y135.443 E23.74296
G1 X143.359 Y136.288 E23.78503
G1 X142.966 Y137.101 E23.82708
G1 X142.502 Y137.876 E23.86914
G1 X141.971 Y138.606 E23.91117
G1 X141.378 Y139.287 E23.95322
G1 X140.727 Y139.913 E23.99528
G1 X140.023 Y140.479 E24.03734
G1 X139.272 Y140.981 E24.0794
G1 X138.48 Y141.414 E24.12143
G1 X137.652 Y141.775 E24.16349
G1 X136.796 Y142.062 E24.20553
G1 X135.917 Y142.271 E24.2476
G1 X135.024 Y142.402 E24.28963
G1 X134.277 Y142.451 E24.32449
G1 X133.67 Y142.464 E24.35276
G1 X101.575 Y142.463 E25.84724
G1 X100.877 Y142.454 E25.87974
G1 X99.976 Y142.403 E25.92176
G1 X99.082 Y142.271 E25.96384
G1 X98.204 Y142.062 E26.00587
G1 X97.347 Y141.775 E26.04795
G1 X96.52 Y141.414 E26.08997
G1 X95.727 Y140.981 E26.13204
G1 X94.976 Y140.48 E26.17408
G1 X94.272 Y139.914 E26.21614
G1 X93.621 Y139.288 E26.25819
G1 X93.028 Y138.607 E26.30024
G1 X92.498 Y137.876 E26.34228
G1 X92.034 Y137.101 E26.38435
G1 X91.64 Y136.288 E26.42641
G1 X91.32 Y135.444 E26.46844
G1 X91.076 Y134.574 E26.51052
G1 X90.91 Y133.686 E26.55258
G1 X90.826 Y132.836 E26.59236
G1 X90.753 Y131.551 E26.65229
G1 X90.726 Y130.943 E26.68063
G1 X90.543 Y128.42 E26.79842
G1 X90.289 Y125.911 E26.91584
G1 X89.959 Y123.377 E27.03483
G1 X89.558 Y120.855 E27.15374
G1 X89.087 Y118.345 E27.27266
G1 X88.565 Y115.94 E27.38725
G1 X87.804 Y112.903 E27.53304
G1 X85.981 Y106.097 E27.86113
G1 X85.765 Y105.246 E27.90201
G1 X85.583 Y104.361 E27.94408
G1 X85.479 Y103.464 E27.98613
G1 X85.456 Y102.562 E28.02814
G1 X85.512 Y101.66 E28.07023
G1 X85.648 Y100.767 E28.11229
G1 X85.862 Y99.89 E28.15432
G1 X86.153 Y99.035 E28.19638
G1 X86.518 Y98.209 E28.23843
G1 X86.956 Y97.419 E28.28049
G1 X87.461 Y96.67 E28.32255
G1 X88.03 Y95.97 E28.36456
G1 X88.66 Y95.322 E28.40664
G1 X89.344 Y94.732 E28.4487
G1 F2700 E23.4487
;MESH:camera_mount_pi.STL
G0 F6000 X100.336 Y122.825
G0 X101.6 Y131.664
;TYPE:WALL-INNER
G1 F2700 E28.4487
G1 F1200 X133.4 Y131.664 E29.92944
G1 X133.401 Y122.651 E30.34913
G1 X138.576 Y103.336 E31.28024
G1 X138.056 Y103.336 E31.30445
G1 X137.75 Y103.336 E31.3187
G1 X132.508 Y122.892 E32.26145
G1 X132.238 Y123.251 E32.28237
G1 X131.928 Y123.336 E32.29734
G1 X103.072 Y123.336 E33.64099
G1 X102.762 Y123.251 E33.65596
G1 X102.491 Y122.892 E33.67691
G1 X97.25 Y103.336 E34.61965
G1 X96.424 Y103.336 E34.65811
G1 X101.6 Y122.655 E35.58941
G1 X101.6 Y131.664 E36.00891
G0 F6000 X101.2 Y132.064
;TYPE:WALL-OUTER
G1 F1200 X133.8 Y132.064 E37.5269
G1 X133.8 Y122.718 E37.96209
G1 X139.097 Y102.936 E38.91568
G1 X138.056 Y102.936 E38.96415
G1 X137.443 Y102.936 E38.99269
G1 X132.122 Y122.788 E39.94971
G1 X132.032 Y122.908 E39.9567
G1 X131.928 Y122.936 E39.96171
G1 X103.072 Y122.936 E41.30537
G1 X102.968 Y122.908 E41.31039
G1 X102.878 Y122.788 E41.31737
G1 X97.557 Y102.936 E42.27439
G1 X95.903 Y102.936 E42.35141
G1 X101.2 Y122.706 E43.30445
G1 X101.2 Y132.064 E43.7402
G1 F2700 E38.7402
G0 F6000 X101.47 Y131.794
G0 X110.399 Y131.844
G0 X110.277 Y131.014
G0 X110.198 Y130.844
;TYPE:WALL-INNER
G1 F2700 E43.7402
G1 F1200 X109.802 Y130.844 E43.75864
G1 X109.402 Y130.777 E43.77752
G1 X109.026 Y130.643 E43.79611
G1 X108.686 Y130.451 E43.81429
G1 X108.368 Y130.196 E43.83327
G1 X108.108 Y129.9 E43.85162
G1 X107.895 Y129.553 E43.87058
G1 X107.747 Y129.171 E43.88965
G1 X107.677 Y128.845 E43.90518
G1 X107.664 Y128.744 E43.90992
G1 X107.652 Y128.429 E43.9246
G1 X107.699 Y128.002 E43.9446
G1 X107.812 Y127.643 E43.96213
G1 X107.995 Y127.268 E43.98156
G1 X108.238 Y126.942 E44.00049
G1 X108.522 Y126.667 E44.0189
G1 X108.849 Y126.448 E44.03722
G1 X109.211 Y126.284 E44.05573
G1 X109.598 Y126.183 E44.07435
G1 X109.999 Y126.148 E44.0931
G1 X110.402 Y126.181 E44.11192
G1 X110.79 Y126.285 E44.13063
G1 X111.151 Y126.447 E44.14905
G1 X111.478 Y126.668 E44.16743
G1 X111.762 Y126.942 E44.18581
G1 X112 Y127.263 E44.20441
G1 X112.185 Y127.63 E44.22355
G1 X112.3 Y127.999 E44.24155
G1 X112.35 Y128.399 E44.26032
G1 X112.334 Y128.793 E44.27868
G1 X112.252 Y129.178 E44.29701
G1 X112.105 Y129.554 E44.31581
G1 X111.892 Y129.9 E44.33473
G1 X111.631 Y130.196 E44.3531
G1 X111.313 Y130.451 E44.37209
G1 X110.972 Y130.644 E44.39033
G1 X110.598 Y130.777 E44.40881
G1 X110.198 Y130.844 E44.4277
G0 F6000 X110.477 Y130.392
;TYPE:WALL-OUTER
G1 F1200 X110.18 Y130.442 E44.44172
G1 X109.82 Y130.442 E44.45849
G1 X109.523 Y130.392 E44.47251
G1 X109.177 Y130.269 E44.48961
G1 X108.922 Y130.125 E44.50325
G1 X108.636 Y129.895 E44.52034
G1 X108.443 Y129.676 E44.53393
G1 X108.265 Y129.391 E44.54957
G1 X108.137 Y129.072 E44.56558
G1 X108.064 Y128.728 E44.58195
G1 X108.053 Y128.404 E44.59705
G1 X108.097 Y128.07 E44.61274
G1 X108.188 Y127.781 E44.62684
G1 X108.349 Y127.463 E44.64344
G1 X108.548 Y127.199 E44.65884
G1 X108.79 Y126.969 E44.67438
G1 X109.034 Y126.805 E44.68807
G1 X109.365 Y126.657 E44.70495
G1 X109.667 Y126.577 E44.7195
G1 X110.017 Y126.55 E44.73585
G1 X110.35 Y126.581 E44.75142
G1 X110.635 Y126.657 E44.76516
G1 X110.966 Y126.805 E44.78204
G1 X111.21 Y126.969 E44.79573
G1 X111.473 Y127.223 E44.81275
G1 X111.649 Y127.46 E44.8265
G1 X111.816 Y127.79 E44.84372
G1 X111.903 Y128.07 E44.85737
G1 X111.947 Y128.4 E44.87288
G1 X111.932 Y128.761 E44.8897
G1 X111.863 Y129.072 E44.90453
G1 X111.735 Y129.391 E44.92054
G1 X111.557 Y129.676 E44.93619
G1 X111.364 Y129.895 E44.94978
G1 X111.078 Y130.125 E44.96687
G1 X110.823 Y130.269 E44.9805
G1 X110.477 Y130.392 E44.9976
G1 F2700 E39.9976
G0 F6000 X110.526 Y130.687
G0 X111.702 Y130.371
G0 X123.298 Y130.371
G0 X125.198 Y130.844
;TYPE:WALL-INNER
G1 F2700 E44.9976
G1 F1200 X124.802 Y130.844 E45.01604
G1 X124.402 Y130.777 E45.03493
G1 X124.026 Y130.643 E45.05351
G1 X123.686 Y130.451 E45.0717
G1 X123.368 Y130.196 E45.09068
G1 X123.108 Y129.9 E45.10902
G1 X122.895 Y129.553 E45.12798
G1 X122.747 Y129.171 E45.14706
G1 X122.666 Y128.794 E45.16501
G1 X122.65 Y128.404 E45.18319
G1 X122.701 Y127.998 E45.20224
G1 X122.816 Y127.626 E45.22037
G1 X122.997 Y127.265 E45.23918
G1 X123.238 Y126.942 E45.25794
