;FLAVOR:Marlin
;TIME:5213
;Filament used: 4.03458m
;Layer height: 0.28
;MINX:69.5
;MINY:82.03
;MINZ:0.28
;MAXX:165.5
;MAXY:146.24
;MAXZ:32.2
;Generated with Cura_SteamEngine 5.2.2
M140 S50
M105
M190 S50
M104 S200
M105
M109 S200
M82 ;absolute extrusion mode
; Ender 3 Custom Start G-code
G92 E0 ; Reset Extruder
G28 ; Home all axes
G1 Z2.0 F3000 ; Move Z Axis up little to prevent scratching of Heat Bed
G1 X0.1 Y20 Z0.3 F5000.0 ; Move to start position
G1 X0.1 Y200.0 Z0.3 F1500.0 E15 ; Draw the first line
G1 X0.4 Y200.0 Z0.3 F5000.0 ; Move to side a little
G1 X0.4 Y20 Z0.3 F1500.0 E30 ; Draw the second line
G92 E0 ; Reset Extruder
G1 Z2.0 F3000 ; Move Z Axis up little to prevent scratching of Heat Bed
G1 X5 Y20 Z0.3 F5000.0 ; Move over to prevent blob squish
G92 E0
G92 E0
G1 F2700 E-5
;LAYER_COUNT:115
;LAYER:0
M107
G0 F6000 X73.383 Y84.66 Z0.28
;TYPE:SKIRT
G1 F2700 E0
G1 F1200 X74.122 Y84.083 E0.04366
G1 X74.908 Y83.572 E0.08731
G1 X75.735 Y83.129 E0.131
G1 X76.597 Y82.758 E0.1747
G1 X77.487 Y82.462 E0.21837
G1 X78.399 Y82.243 E0.26204
G1 X79.326 Y82.103 E0.3057
G1 X80.201 Y82.043 E0.34654
G1 X80.83 Y82.03 E0.37583
G1 X113.963 Y82.031 E1.91864
G1 X114.673 Y82.042 E1.95171
G1 X116.065 Y82.152 E2.01673
G1 X118.935 Y82.564 E2.15174
G1 X121.427 Y82.848 E2.26853
G1 X123.919 Y83.061 E2.38499
G1 X126.45 Y83.205 E2.50303
G1 X128.955 Y83.277 E2.61972
G1 X130.313 Y83.286 E2.68296
G1 X153.966 Y83.287 E3.78434
G1 X154.664 Y83.298 E3.81685
G1 X155.601 Y83.353 E3.86055
G1 X156.529 Y83.487 E3.90421
G1 X157.442 Y83.7 E3.94787
G1 X158.334 Y83.99 E3.99154
G1 X159.198 Y84.355 E4.03522
G1 X160.028 Y84.792 E4.07889
G1 X160.817 Y85.298 E4.12254
G1 X161.561 Y85.87 E4.16624
G1 X162.253 Y86.503 E4.20991
G1 X162.889 Y87.192 E4.25357
G1 X163.464 Y87.934 E4.29728
G1 X163.973 Y88.721 E4.34092
G1 X164.414 Y89.549 E4.38461
G1 X164.782 Y90.411 E4.42825
G1 X165.075 Y91.302 E4.47192
G1 X165.292 Y92.215 E4.51562
G1 X165.43 Y93.142 E4.55926
G1 X165.487 Y93.987 E4.5987
G1 X165.5 Y94.616 E4.62799
G1 X165.499 Y112.704 E5.47025
G1 X165.487 Y113.539 E5.50913
G1 X165.487 Y116.171 E5.63169
G1 X165.499 Y116.939 E5.66745
G1 X165.499 Y134.634 E6.49141
G1 X165.49 Y135.366 E6.52549
G1 X165.439 Y136.303 E6.56919
G1 X165.308 Y137.231 E6.61283
G1 X165.098 Y138.145 E6.6565
G1 X164.811 Y139.038 E6.70017
G1 X164.449 Y139.904 E6.74388
G1 X164.015 Y140.735 E6.78753
G1 X163.512 Y141.526 E6.83118
G1 X162.942 Y142.272 E6.8749
G1 X162.312 Y142.966 E6.91854
G1 X161.625 Y143.604 E6.9622
G1 X160.885 Y144.181 E7.0059
G1 X160.1 Y144.694 E7.04956
G1 X159.273 Y145.137 E7.09325
G1 X158.412 Y145.508 E7.1369
G1 X157.522 Y145.805 E7.18059
G1 X156.611 Y146.025 E7.22423
G1 X155.684 Y146.166 E7.26789
G1 X154.799 Y146.227 E7.3092
G1 X154.17 Y146.24 E7.33849
G1 X121.037 Y146.239 E8.88131
G1 X120.327 Y146.228 E8.91437
G1 X119.39 Y146.173 E8.95808
G1 X118.793 Y146.096 E8.9861
G1 X117.817 Y145.943 E9.03211
G1 X116.992 Y145.803 E9.07107
G1 X114.455 Y145.442 E9.19039
G1 X111.975 Y145.161 E9.30661
G1 X109.459 Y144.947 E9.42419
G1 X106.986 Y144.808 E9.53953
G1 X103.054 Y144.725 E9.72266
G1 X81.049 Y144.724 E10.7473
G1 X80.351 Y144.714 E10.77981
G1 X79.415 Y144.66 E10.82346
G1 X78.487 Y144.528 E10.86711
G1 X77.573 Y144.316 E10.9108
G1 X76.681 Y144.027 E10.95446
G1 X75.816 Y143.664 E10.99814
G1 X74.986 Y143.228 E11.0418
G1 X74.195 Y142.723 E11.0855
G1 X73.451 Y142.152 E11.12917
G1 X72.758 Y141.52 E11.17284
G1 X72.121 Y140.832 E11.2165
G1 X71.546 Y140.091 E11.26017
G1 X71.035 Y139.305 E11.30383
G1 X70.593 Y138.477 E11.34753
G1 X70.224 Y137.615 E11.39119
G1 X69.929 Y136.725 E11.43485
G1 X69.711 Y135.813 E11.47851
G1 X69.571 Y134.885 E11.52222
G1 X69.513 Y134.013 E11.56291
G1 X69.5 Y133.383 E11.59225
G1 X69.501 Y116.173 E12.39362
G1 X69.516 Y115.124 E12.44247
G1 X69.516 Y112.495 E12.56489
G1 X69.502 Y111.759 E12.59917
G1 X69.5 Y93.724 E13.43895
G1 X69.51 Y92.894 E13.4776
G1 X69.562 Y91.958 E13.52125
G1 X69.694 Y91.029 E13.56495
G1 X69.905 Y90.115 E13.60863
G1 X70.192 Y89.223 E13.65226
G1 X70.555 Y88.358 E13.69594
G1 X70.99 Y87.527 E13.73961
G1 X71.494 Y86.736 E13.78329
G1 X72.064 Y85.991 E13.82697
G1 X72.695 Y85.297 E13.87064
G1 X73.383 Y84.66 E13.9143
G0 F6000 X73.771 Y84.856
G1 F1200 X74.507 Y84.302 E13.9572
G1 X75.288 Y83.814 E14.00008
G1 X76.108 Y83.396 E14.04294
G1 X76.961 Y83.05 E14.0858
G1 X77.841 Y82.78 E14.12866
G1 X78.741 Y82.587 E14.17152
G1 X79.655 Y82.473 E14.21441
G1 X80.212 Y82.443 E14.24038
G1 X80.83 Y82.43 E14.26917
G1 X113.957 Y82.431 E15.8117
G1 X114.667 Y82.442 E15.84476
G1 X116.008 Y82.548 E15.9074
G1 X118.866 Y82.958 E16.04184
G1 X121.385 Y83.246 E16.1599
G1 X123.899 Y83.46 E16.27739
G1 X126.415 Y83.603 E16.39473
G1 X128.988 Y83.677 E16.51459
G1 X130.31 Y83.686 E16.57615
G1 X153.96 Y83.687 E17.6774
G1 X154.658 Y83.698 E17.7099
G1 X155.577 Y83.753 E17.75277
G1 X156.488 Y83.887 E17.79565
G1 X157.384 Y84.099 E17.83852
G1 X158.258 Y84.389 E17.8814
G1 X159.103 Y84.753 E17.92424
G1 X159.914 Y85.189 E17.96712
G1 X160.684 Y85.694 E18.00999
G1 X161.407 Y86.264 E18.05286
G1 X162.078 Y86.894 E18.09572
G1 X162.692 Y87.581 E18.13863
G1 X163.243 Y88.318 E18.18147
G1 X163.729 Y89.1 E18.22435
G1 X164.145 Y89.921 E18.2672
G1 X164.489 Y90.775 E18.31007
G1 X164.757 Y91.656 E18.35295
G1 X164.947 Y92.557 E18.39583
G1 X165.059 Y93.47 E18.43866
G1 X165.087 Y93.998 E18.46328
G1 X165.1 Y94.616 E18.49207
G1 X165.099 Y112.698 E19.33404
G1 X165.087 Y113.533 E19.37292
G1 X165.087 Y116.177 E19.49604
G1 X165.099 Y116.945 E19.53181
G1 X165.099 Y134.629 E20.35525
G1 X165.09 Y135.361 E20.38933
G1 X165.039 Y136.281 E20.43224
G1 X164.908 Y137.192 E20.4751
G1 X164.699 Y138.088 E20.51794
G1 X164.412 Y138.963 E20.56082
G1 X164.051 Y139.81 E20.60369
G1 X163.618 Y140.622 E20.64654
G1 X163.115 Y141.394 E20.68944
G1 X162.548 Y142.119 E20.7323
G1 X161.92 Y142.792 E20.77516
G1 X161.236 Y143.408 E20.81802
G1 X160.501 Y143.963 E20.86091
G1 X159.72 Y144.451 E20.90379
G1 X158.901 Y144.87 E20.94663
G1 X158.048 Y145.217 E20.98951
G1 X157.168 Y145.487 E21.03237
G1 X156.268 Y145.681 E21.07524
G1 X155.354 Y145.796 E21.11814
G1 X154.788 Y145.827 E21.14453
G1 X154.17 Y145.84 E21.17332
G1 X121.043 Y145.839 E22.71585
G1 X120.333 Y145.828 E22.74891
G1 X119.414 Y145.774 E22.79178
G1 X118.855 Y145.701 E22.81803
G1 X117.733 Y145.524 E22.87092
G1 X117.044 Y145.406 E22.90347
G1 X114.485 Y145.042 E23.02383
G1 X112.018 Y144.762 E23.13944
G1 X109.482 Y144.547 E23.25795
G1 X107.016 Y144.408 E23.37296
G1 X103.062 Y144.325 E23.55711
G1 X81.055 Y144.324 E24.58185
G1 X80.357 Y144.314 E24.61436
G1 X79.438 Y144.261 E24.65722
G1 X78.527 Y144.128 E24.70009
G1 X77.631 Y143.917 E24.74295
G1 X76.757 Y143.629 E24.7858
G1 X75.91 Y143.266 E24.82871
G1 X75.099 Y142.831 E24.87156
G1 X74.329 Y142.327 E24.91442
G1 X73.605 Y141.758 E24.95729
G1 X72.933 Y141.128 E25.00019
G1 X72.318 Y140.443 E25.04305
G1 X71.765 Y139.707 E25.08592
G1 X71.278 Y138.926 E25.12878
G1 X70.861 Y138.105 E25.17165
G1 X70.516 Y137.251 E25.21454
G1 X70.247 Y136.371 E25.25739
G1 X70.055 Y135.47 E25.30029
G1 X69.942 Y134.557 E25.34312
G1 X69.913 Y134.002 E25.369
G1 X69.9 Y133.383 E25.39783
G1 X69.901 Y116.178 E26.19897
G1 X69.916 Y115.129 E26.24782
G1 X69.916 Y112.486 E26.37089
G1 X69.902 Y111.759 E26.40475
G1 X69.9 Y93.724 E27.24453
G1 X69.91 Y92.9 E27.2829
G1 X69.962 Y91.98 E27.32581
G1 X70.094 Y91.069 E27.36867
G1 X70.304 Y90.173 E27.41153
G1 X70.591 Y89.298 E27.45441
G1 X70.953 Y88.452 E27.49725
G1 X71.387 Y87.64 E27.54013
G1 X71.89 Y86.869 E27.58299
G1 X72.458 Y86.144 E27.62588
G1 X73.087 Y85.471 E27.66877
G1 X73.771 Y84.856 E27.7116
G0 F6000 X74.159 Y85.056
G1 F1200 X74.89 Y84.526 E27.75365
G1 X75.665 Y84.062 E27.79571
G1 X76.478 Y83.669 E27.83775
G1 X77.323 Y83.349 E27.87983
G1 X78.192 Y83.106 E27.92184
G1 X79.08 Y82.94 E27.96391
G1 X80.223 Y82.843 E28.01732
G1 X80.83 Y82.83 E28.0456
G1 X113.951 Y82.831 E29.58785
G1 X114.661 Y82.842 E29.62091
G1 X115.951 Y82.944 E29.68117
G1 X118.834 Y83.358 E29.81679
G1 X121.338 Y83.643 E29.93414
G1 X123.878 Y83.86 E30.05284
G1 X126.38 Y84.002 E30.16953
G1 X128.972 Y84.077 E30.29028
G1 X130.308 Y84.086 E30.35249
G1 X153.954 Y84.087 E31.45355
G1 X154.652 Y84.098 E31.48605
G1 X155.553 Y84.152 E31.52808
G1 X156.446 Y84.286 E31.57013
G1 X157.324 Y84.498 E31.61219
G1 X158.18 Y84.787 E31.65426
G1 X159.006 Y85.151 E31.69629
G1 X159.798 Y85.586 E31.73836
G1 X160.547 Y86.09 E31.7804
G1 X161.25 Y86.658 E31.82248
G1 X161.899 Y87.285 E31.8645
G1 X162.49 Y87.968 E31.90656
G1 X163.019 Y88.7 E31.94862
G1 X163.48 Y89.477 E31.99068
G1 X163.871 Y90.291 E32.03273
G1 X164.189 Y91.136 E32.07477
G1 X164.43 Y92.006 E32.11681
G1 X164.594 Y92.894 E32.15886
G1 X164.687 Y94.009 E32.21096
G1 X164.7 Y94.616 E32.23923
G1 X164.699 Y112.693 E33.08097
G1 X164.687 Y113.528 E33.11986
G1 X164.687 Y116.184 E33.24353
G1 X164.699 Y116.952 E33.2793
G1 X164.699 Y134.624 E34.10218
G1 X164.69 Y135.356 E34.13627
G1 X164.639 Y136.258 E34.17833
G1 X164.509 Y137.152 E34.2204
G1 X164.299 Y138.03 E34.26244
G1 X164.013 Y138.887 E34.30451
G1 X163.653 Y139.715 E34.34655
G1 X163.22 Y140.508 E34.38862
G1 X162.719 Y141.259 E34.43066
G1 X162.154 Y141.963 E34.47269
G1 X161.528 Y142.615 E34.51478
G1 X160.848 Y143.208 E34.55679
G1 X160.117 Y143.739 E34.59886
G1 X159.342 Y144.203 E34.64092
G1 X158.53 Y144.597 E34.68295
G1 X157.685 Y144.918 E34.72504
G1 X156.816 Y145.162 E34.76707
G1 X155.929 Y145.329 E34.80909
G1 X154.777 Y145.427 E34.86293
G1 X154.17 Y145.44 E34.8912
G1 X121.049 Y145.439 E36.43345
G1 X120.339 Y145.428 E36.46652
G1 X119.437 Y145.374 E36.50859
G1 X118.917 Y145.306 E36.53301
G1 X117.8 Y145.13 E36.58567
G1 X117.056 Y145.003 E36.62081
G1 X114.59 Y144.652 E36.7368
G1 X112.025 Y144.361 E36.857
G1 X109.538 Y144.15 E36.97322
G1 X107.019 Y144.008 E37.0907
G1 X103.071 Y143.925 E37.27458
G1 X81.061 Y143.924 E38.29946
G1 X80.363 Y143.914 E38.33196
G1 X79.461 Y143.861 E38.37403
G1 X78.568 Y143.729 E38.41607
G1 X77.69 Y143.518 E38.45812
G1 X76.834 Y143.23 E38.50017
G1 X76.007 Y142.868 E38.54221
G1 X75.215 Y142.433 E38.58428
G1 X74.464 Y141.931 E38.62634
G1 X73.761 Y141.364 E38.6684
G1 X73.111 Y140.737 E38.71045
G1 X72.519 Y140.055 E38.7525
G1 X71.989 Y139.324 E38.79455
G1 X71.527 Y138.548 E38.8366
G1 X71.134 Y137.735 E38.87865
G1 X70.816 Y136.89 E38.92069
G1 X70.573 Y136.02 E38.96275
G1 X70.408 Y135.132 E39.00481
G1 X70.313 Y133.991 E39.05812
G1 X70.3 Y133.383 E39.08644
G1 X70.301 Y116.184 E39.8873
G1 X70.316 Y115.135 E39.93615
G1 X70.316 Y112.477 E40.05991
G1 X70.302 Y111.759 E40.09335
G1 X70.3 Y93.724 E40.93314
G1 X70.31 Y92.905 E40.97128
G1 X70.362 Y92.003 E41.01335
G1 X70.493 Y91.11 E41.05538
G1 X70.703 Y90.231 E41.09746
G1 X70.99 Y89.375 E41.1395
G1 X71.351 Y88.547 E41.18156
G1 X71.784 Y87.755 E41.22359
G1 X72.286 Y87.004 E41.26565
G1 X72.852 Y86.3 E41.30771
G1 X73.478 Y85.649 E41.34977
G1 X74.159 Y85.056 E41.39181
G1 F2700 E36.39181
;MESH:camera_mount_5.STL
G0 F6000 X83.302 Y96.155
G0 X85.003 Y100.383
;TYPE:WALL-INNER
G1 F2700 E41.39181
G1 F1200 X84.596 Y100.347 E41.41084
G1 X84.214 Y100.247 E41.42923
G1 X83.859 Y100.087 E41.44736
G1 X83.567 Y99.892 E41.46371
G1 X83.485 Y99.826 E41.46861
G1 X83.237 Y99.587 E41.48465
G1 X82.995 Y99.26 E41.50359
G1 X82.815 Y98.903 E41.52221
G1 X82.697 Y98.503 E41.54163
G1 X82.65 Y98.132 E41.55904
G1 X82.666 Y97.735 E41.57754
G1 X82.747 Y97.357 E41.59554
G1 X82.898 Y96.971 E41.61484
G1 X83.106 Y96.633 E41.63332
G1 X83.374 Y96.328 E41.65223
G1 X83.682 Y96.081 E41.67061
G1 X84.026 Y95.887 E41.689
G1 X84.402 Y95.753 E41.70759
G1 X84.802 Y95.686 E41.72647
G1 X85.198 Y95.686 E41.74491
G1 X85.598 Y95.753 E41.7638
G1 X85.974 Y95.887 E41.78238
G1 X86.318 Y96.081 E41.80077
G1 X86.625 Y96.328 E41.81912
G1 X86.892 Y96.63 E41.83789
G1 X87.102 Y96.971 E41.85654
G1 X87.253 Y97.357 E41.87584
G1 X87.334 Y97.735 E41.89384
G1 X87.35 Y98.128 E41.91216
G1 X87.298 Y98.528 E41.93094
G1 X87.175 Y98.919 E41.95002
G1 X87.002 Y99.26 E41.96783
G1 X86.764 Y99.583 E41.98651
G1 X86.479 Y99.861 E42.00505
G1 X86.147 Y100.084 E42.02367
G1 X85.785 Y100.247 E42.04216
G1 X85.424 Y100.341 E42.05953
G1 X85.003 Y100.383 E42.07923
G0 F6000 X85.018 Y99.98
;TYPE:WALL-OUTER
G1 F1200 X84.684 Y99.954 E42.09483
G1 X84.334 Y99.862 E42.11168
G1 X84.063 Y99.74 E42.12552
G1 X83.79 Y99.56 E42.14075
G1 X83.549 Y99.332 E42.15619
G1 X83.331 Y99.036 E42.17331
G1 X83.184 Y98.74 E42.1887
G1 X83.097 Y98.459 E42.2024
G1 X83.053 Y98.13 E42.21785
G1 X83.068 Y97.768 E42.23472
G1 X83.137 Y97.457 E42.24956
G1 X83.265 Y97.139 E42.26552
G1 X83.441 Y96.857 E42.281
G1 X83.664 Y96.608 E42.29656
G1 X83.895 Y96.423 E42.31034
G1 X84.177 Y96.261 E42.32549
G1 X84.523 Y96.138 E42.34259
G1 X84.82 Y96.088 E42.35661
G1 X85.18 Y96.088 E42.37337
G1 X85.477 Y96.138 E42.3874
G1 X85.823 Y96.261 E42.4045
G1 X86.105 Y96.423 E42.41964
G1 X86.336 Y96.608 E42.43342
G1 X86.559 Y96.857 E42.44899
G1 X86.735 Y97.139 E42.46446
G1 X86.863 Y97.457 E42.48043
G1 X86.932 Y97.768 E42.49526
G1 X86.947 Y98.126 E42.51194
G1 X86.907 Y98.442 E42.52678
G1 X86.816 Y98.74 E42.54129
G1 X86.661 Y99.051 E42.55747
G1 X86.463 Y99.319 E42.57298
G1 X86.21 Y99.56 E42.58925
G1 X85.966 Y99.724 E42.60294
G1 X85.666 Y99.862 E42.61832
G1 X85.34 Y99.95 E42.63404
G1 X85.018 Y99.98 E42.6491
G1 F2700 E37.6491
G0 F6000 X85.065 Y100.478
G0 X86.64 Y99.956
G0 X108.36 Y99.956
G0 X109.997 Y100.383
;TYPE:WALL-INNER
G1 F2700 E42.6491
G1 F1200 X109.576 Y100.341 E42.6688
G1 X109.215 Y100.247 E42.68617
G1 X108.851 Y100.084 E42.70474
G1 X108.524 Y99.86 E42.7232
G1 X108.236 Y99.583 E42.7418
G1 X107.998 Y99.26 E42.76049
G1 X107.825 Y98.919 E42.77829
G1 X107.7 Y98.531 E42.79727
G1 X107.65 Y98.132 E42.816
G1 X107.666 Y97.735 E42.8345
G1 X107.747 Y97.357 E42.8525
G1 X107.898 Y96.971 E42.8718
G1 X108.108 Y96.63 E42.89045
G1 X108.375 Y96.328 E42.90922
G1 X108.682 Y96.081 E42.92756
G1 X109.026 Y95.887 E42.94595
G1 X109.402 Y95.753 E42.96454
G1 X109.802 Y95.686 E42.98343
G1 X110.198 Y95.686 E43.00187
G1 X110.598 Y95.753 E43.02075
G1 X110.974 Y95.887 E43.03934
G1 X111.318 Y96.081 E43.05773
G1 X111.626 Y96.328 E43.07611
G1 X111.894 Y96.633 E43.09502
G1 X112.102 Y96.971 E43.1135
G1 X112.253 Y97.357 E43.1328
G1 X112.334 Y97.735 E43.1508
G1 X112.348 Y98.076 E43.16669
G1 X112.344 Y98.175 E43.1713
G1 X112.303 Y98.503 E43.1867
G1 X112.184 Y98.904 E43.20617
G1 X112.001 Y99.265 E43.22502
G1 X111.763 Y99.587 E43.24366
G1 X111.481 Y99.859 E43.26191
G1 X111.142 Y100.086 E43.2809
G1 X110.786 Y100.247 E43.2991
G1 X110.404 Y100.347 E43.31748
G1 X109.997 Y100.383 E43.33651
G0 F6000 X109.982 Y99.98
;TYPE:WALL-OUTER
G1 F1200 X109.684 Y99.954 E43.35044
G1 X109.334 Y99.862 E43.36729
G1 X109.034 Y99.724 E43.38267
G1 X108.79 Y99.56 E43.39636
G1 X108.537 Y99.319 E43.41263
G1 X108.339 Y99.051 E43.42814
G1 X108.192 Y98.76 E43.44332
G1 X108.097 Y98.459 E43.45802
G1 X108.053 Y98.13 E43.47348
G1 X108.068 Y97.768 E43.49035
G1 X108.137 Y97.457 E43.50518
G1 X108.265 Y97.139 E43.52114
G1 X108.441 Y96.857 E43.53662
G1 X108.664 Y96.608 E43.55219
G1 X108.895 Y96.423 E43.56597
G1 X109.177 Y96.261 E43.58111
G1 X109.523 Y96.138 E43.59821
G1 X109.82 Y96.088 E43.61223
G1 X110.18 Y96.088 E43.629
G1 X110.477 Y96.138 E43.64302
G1 X110.823 Y96.261 E43.66012
G1 X111.105 Y96.423 E43.67526
G1 X111.336 Y96.608 E43.68904
G1 X111.559 Y96.857 E43.70461
G1 X111.735 Y97.139 E43.72009
G1 X111.863 Y97.457 E43.73605
G1 X111.932 Y97.768 E43.75088
G1 X111.948 Y98.092 E43.76599
G1 X111.909 Y98.434 E43.78202
G1 X111.816 Y98.74 E43.79691
G1 X111.669 Y99.036 E43.8123
G1 X111.451 Y99.332 E43.82941
G1 X111.237 Y99.538 E43.84325
G1 X110.937 Y99.74 E43.86009
G1 X110.666 Y99.862 E43.87393
G1 X110.316 Y99.954 E43.89078
G1 X109.982 Y99.98 E43.90638
G1 F2700 E38.90638
G0 F6000 X109.933 Y100.477
G0 X110.498 Y100.509
G0 X113.7 Y100.509
G0 X113.9 Y111.165
;TYPE:WALL-INNER
G1 F2700 E43.90638
G1 F1200 X113.9 Y95.097 E44.65457
G1 X113.9 Y93.63 E44.72288
G1 X81.101 Y93.631 E46.25014
G1 X81.1 Y111.165 E47.06659
G1 X113.9 Y111.165 E48.5939
G0 F6000 X114.3 Y111.565
;TYPE:WALL-OUTER
G1 F1200 X114.3 Y95.097 E49.36072
G1 X114.3 Y93.23 E49.44765
G1 X80.701 Y93.231 E51.01216
G1 X80.7 Y111.565 E51.86587
G1 X114.3 Y111.565 E53.43043
G0 F6000 X114.03 Y111.295
G0 X113.8 Y110.805
