;FLAVOR:Marlin
;TIME:7539
;Filament used: 6.87169m
;Layer height: 0.28
;MINX:69.7
;MINY:79.7
;MINZ:0.28
;MAXX:165.3
;MAXY:155.3
;MAXZ:11.2
;Generated with Cura_SteamEngine 5.2.2
M140 S50
M105
M190 S50
M104 S200
M105
M109 S200
M82 ;absolute extrusion mode
; Ender 3 Custom Start G-code
G92 E0 ; Reset Extruder
G28 ; Home all axes
G1 Z2.0 F3000 ; Move Z Axis up little to prevent scratching of Heat Bed
G1 X0.1 Y20 Z0.3 F5000.0 ; Move to start position
G1 X0.1 Y200.0 Z0.3 F1500.0 E15 ; Draw the first line
G1 X0.4 Y200.0 Z0.3 F5000.0 ; Move to side a little
G1 X0.4 Y20 Z0.3 F1500.0 E30 ; Draw the second line
G92 E0 ; Reset Extruder
G1 Z2.0 F3000 ; Move Z Axis up little to prevent scratching of Heat Bed
G1 X5 Y20 Z0.3 F5000.0 ; Move over to prevent blob squish
G92 E0
G92 E0
G1 F2700 E-5
;LAYER_COUNT:40
;LAYER:0
M107
G0 F6000 X73.599 Y82.747 Z0.28
;TYPE:SKIRT
G1 F2700 E0
G1 F1200 X74.078 Y82.337 E0.02936
G1 X74.703 Y81.855 E0.06611
G1 X75.071 Y81.615 E0.08657
G1 X75.604 Y81.288 E0.11569
G1 X76.297 Y80.909 E0.15247
G1 X76.705 Y80.727 E0.17327
G1 X77.286 Y80.487 E0.20254
G1 X78.03 Y80.223 E0.2393
G1 X78.434 Y80.114 E0.25878
G1 X79.043 Y79.967 E0.28796
G1 X79.819 Y79.821 E0.32472
G1 X80.266 Y79.773 E0.34566
G1 X80.894 Y79.724 E0.37499
G1 X81.501 Y79.7 E0.40328
G1 X153.499 Y79.7 E3.7558
G1 X154.106 Y79.724 E3.78409
G1 X154.734 Y79.773 E3.81342
G1 X155.517 Y79.874 E3.85018
G1 X155.957 Y79.967 E3.87112
G1 X156.566 Y80.114 E3.9003
G1 X157.323 Y80.338 E3.93706
G1 X157.712 Y80.486 E3.95644
G1 X158.291 Y80.725 E3.9856
G1 X159.005 Y81.063 E4.02239
G1 X159.392 Y81.285 E4.04316
G1 X159.927 Y81.613 E4.07238
G1 X160.578 Y82.06 E4.10915
G1 X160.92 Y82.336 E4.12962
G1 X161.397 Y82.744 E4.15885
G1 X161.97 Y83.287 E4.1956
G1 X162.253 Y83.599 E4.21522
G1 X162.663 Y84.078 E4.24458
G1 X163.145 Y84.703 E4.28133
G1 X163.385 Y85.071 E4.30179
G1 X163.712 Y85.604 E4.3309
G1 X164.091 Y86.297 E4.36768
G1 X164.271 Y86.701 E4.38828
G1 X164.511 Y87.281 E4.41751
G1 X164.776 Y88.025 E4.45428
G1 X164.887 Y88.436 E4.47411
G1 X165.034 Y89.046 E4.50332
G1 X165.18 Y89.822 E4.54009
G1 X165.227 Y90.264 E4.56079
G1 X165.276 Y90.89 E4.59003
G1 X165.3 Y91.499 E4.61841
G1 X165.3 Y143.499 E7.03974
G1 X165.276 Y144.106 E7.06803
G1 X165.227 Y144.734 E7.09736
G1 X165.126 Y145.517 E7.13412
G1 X165.035 Y145.951 E7.15477
G1 X164.889 Y146.558 E7.18384
G1 X164.665 Y147.316 E7.22065
G1 X164.514 Y147.712 E7.24038
G1 X164.274 Y148.293 E7.26965
G1 X163.936 Y149.007 E7.30644
G1 X163.715 Y149.392 E7.32711
G1 X163.387 Y149.927 E7.35633
G1 X162.94 Y150.578 E7.3931
G1 X162.664 Y150.92 E7.41356
G1 X162.256 Y151.397 E7.44279
G1 X161.713 Y151.97 E7.47955
G1 X161.4 Y152.254 E7.49923
G1 X160.922 Y152.663 E7.52852
G1 X160.297 Y153.145 E7.56528
G1 X159.933 Y153.382 E7.5855
G1 X159.399 Y153.71 E7.61468
G1 X158.706 Y154.089 E7.65146
G1 X158.295 Y154.273 E7.67243
G1 X157.714 Y154.513 E7.7017
G1 X156.97 Y154.777 E7.73846
G1 X156.566 Y154.886 E7.75795
G1 X155.957 Y155.033 E7.78712
G1 X155.181 Y155.179 E7.82389
G1 X154.734 Y155.227 E7.84482
G1 X154.106 Y155.276 E7.87415
G1 X153.499 Y155.3 E7.90244
G1 X81.501 Y155.3 E11.25497
G1 X80.894 Y155.276 E11.28325
G1 X80.266 Y155.227 E11.31258
G1 X79.483 Y155.126 E11.34935
G1 X79.043 Y155.033 E11.37029
G1 X78.434 Y154.886 E11.39946
G1 X77.677 Y154.662 E11.43622
G1 X77.286 Y154.513 E11.4557
G1 X76.705 Y154.273 E11.48497
G1 X75.991 Y153.935 E11.52176
G1 X75.601 Y153.71 E11.54272
G1 X75.067 Y153.382 E11.5719
G1 X74.415 Y152.936 E11.60869
G1 X74.078 Y152.663 E11.62888
G1 X73.6 Y152.254 E11.65818
G1 X73.027 Y151.71 E11.69497
G1 X72.744 Y151.397 E11.71461
G1 X72.336 Y150.92 E11.74384
G1 X71.853 Y150.295 E11.78062
G1 X71.613 Y149.927 E11.80108
G1 X71.285 Y149.392 E11.8303
G1 X70.907 Y148.699 E11.86706
G1 X70.726 Y148.293 E11.88776
G1 X70.486 Y147.712 E11.91703
G1 X70.222 Y146.968 E11.95379
G1 X70.111 Y146.558 E11.97357
G1 X69.965 Y145.951 E12.00264
G1 X69.82 Y145.175 E12.0394
G1 X69.773 Y144.736 E12.05996
G1 X69.724 Y144.11 E12.08919
G1 X69.7 Y143.501 E12.11757
G1 X69.7 Y91.501 E14.53891
G1 X69.724 Y90.894 E14.5672
G1 X69.773 Y90.266 E14.59653
G1 X69.874 Y89.483 E14.63329
G1 X69.965 Y89.049 E14.65394
G1 X70.111 Y88.442 E14.68301
G1 X70.335 Y87.684 E14.71981
G1 X70.486 Y87.288 E14.73955
G1 X70.726 Y86.707 E14.76882
G1 X71.064 Y85.993 E14.8056
G1 X71.285 Y85.608 E14.82627
G1 X71.613 Y85.073 E14.8555
G1 X72.06 Y84.422 E14.89227
G1 X72.336 Y84.08 E14.91273
G1 X72.744 Y83.603 E14.94196
G1 X73.287 Y83.03 E14.97872
G1 X73.599 Y82.747 E14.99833
G0 F6000 X73.859 Y83.051
G1 F1200 X74.338 Y82.641 E15.02769
G1 X74.948 Y82.172 E15.06352
G1 X75.28 Y81.955 E15.08199
G1 X75.813 Y81.628 E15.11111
G1 X76.489 Y81.261 E15.14692
G1 X76.858 Y81.097 E15.16573
G1 X77.439 Y80.857 E15.195
G1 X78.528 Y80.503 E15.24832
G1 X79.137 Y80.356 E15.27749
G1 X79.893 Y80.214 E15.31331
G1 X80.297 Y80.171 E15.33222
G1 X80.925 Y80.122 E15.36156
G1 X81.501 Y80.1 E15.3884
G1 X153.499 Y80.1 E18.74093
G1 X154.075 Y80.122 E18.76777
G1 X154.703 Y80.171 E18.7971
G1 X155.465 Y80.271 E18.83288
G1 X155.863 Y80.356 E18.85183
G1 X156.472 Y80.503 E18.88101
G1 X157.559 Y80.856 E18.93422
G1 X158.138 Y81.095 E18.96339
G1 X158.833 Y81.425 E18.99921
G1 X159.183 Y81.626 E19.01801
G1 X159.718 Y81.954 E19.04723
G1 X160.352 Y82.39 E19.08306
G1 X160.66 Y82.64 E19.10153
G1 X161.137 Y83.048 E19.13076
G1 X161.949 Y83.859 E19.1842
G1 X162.359 Y84.338 E19.21356
G1 X162.828 Y84.948 E19.24938
G1 X163.045 Y85.28 E19.26785
G1 X163.372 Y85.813 E19.29697
G1 X163.739 Y86.489 E19.33279
G1 X163.902 Y86.854 E19.3514
G1 X164.142 Y87.434 E19.38063
G1 X164.498 Y88.529 E19.43424
G1 X164.645 Y89.139 E19.46346
G1 X164.786 Y89.895 E19.49927
G1 X164.828 Y90.296 E19.51805
G1 X164.877 Y90.922 E19.54728
G1 X164.9 Y91.499 E19.57417
G1 X164.9 Y143.499 E21.99551
G1 X164.878 Y144.075 E22.02235
G1 X164.829 Y144.703 E22.05168
G1 X164.729 Y145.465 E22.08747
G1 X164.646 Y145.858 E22.10617
G1 X164.5 Y146.465 E22.13524
G1 X164.144 Y147.559 E22.18881
G1 X163.904 Y148.14 E22.21808
G1 X163.574 Y148.835 E22.25391
G1 X163.374 Y149.183 E22.2726
G1 X163.046 Y149.718 E22.30182
G1 X162.61 Y150.352 E22.33765
G1 X162.36 Y150.66 E22.35612
G1 X161.952 Y151.137 E22.38535
G1 X161.14 Y151.95 E22.43885
G1 X160.662 Y152.359 E22.46815
G1 X160.052 Y152.828 E22.50397
G1 X159.724 Y153.042 E22.52221
G1 X159.19 Y153.37 E22.55139
G1 X158.515 Y153.737 E22.58717
G1 X158.142 Y153.903 E22.60618
G1 X157.561 Y154.143 E22.63545
G1 X156.472 Y154.497 E22.68877
G1 X155.863 Y154.644 E22.71794
G1 X155.107 Y154.786 E22.75376
G1 X154.703 Y154.829 E22.77268
G1 X154.075 Y154.878 E22.80201
G1 X153.499 Y154.9 E22.82885
G1 X81.501 Y154.9 E26.18138
G1 X80.925 Y154.878 E26.20822
G1 X80.297 Y154.829 E26.23755
G1 X79.535 Y154.729 E26.27334
G1 X79.137 Y154.644 E26.29229
G1 X78.528 Y154.497 E26.32146
G1 X77.439 Y154.143 E26.37478
G1 X76.858 Y153.903 E26.40405
G1 X76.163 Y153.573 E26.43988
G1 X75.81 Y153.37 E26.45884
G1 X75.276 Y153.042 E26.48802
G1 X74.642 Y152.605 E26.52387
G1 X74.338 Y152.359 E26.54208
G1 X73.86 Y151.95 E26.57138
G1 X73.048 Y151.137 E26.62488
G1 X72.64 Y150.66 E26.65411
G1 X72.171 Y150.05 E26.68994
G1 X71.954 Y149.718 E26.70841
G1 X71.626 Y149.183 E26.73763
G1 X71.259 Y148.507 E26.77344
G1 X71.096 Y148.14 E26.79214
G1 X70.856 Y147.559 E26.82141
G1 X70.5 Y146.465 E26.87499
G1 X70.354 Y145.858 E26.90406
G1 X70.213 Y145.101 E26.93991
G1 X70.172 Y144.704 E26.9585
G1 X70.123 Y144.078 E26.98773
G1 X70.1 Y143.501 E27.01462
G1 X70.1 Y91.501 E29.43596
G1 X70.122 Y90.925 E29.4628
G1 X70.171 Y90.297 E29.49213
G1 X70.271 Y89.535 E29.52792
G1 X70.354 Y89.142 E29.54662
G1 X70.5 Y88.535 E29.57569
G1 X70.856 Y87.441 E29.62926
G1 X71.096 Y86.86 E29.65853
G1 X71.426 Y86.165 E29.69436
G1 X71.626 Y85.817 E29.71305
G1 X71.954 Y85.282 E29.74227
G1 X72.39 Y84.648 E29.7781
G1 X72.64 Y84.34 E29.79657
G1 X73.048 Y83.863 E29.8258
G1 X73.859 Y83.051 E29.87924
G0 F6000 X74.119 Y83.355
G1 F1200 X74.598 Y82.945 E29.9086
G1 X75.489 Y82.296 E29.95992
G1 X76.022 Y81.969 E29.98904
G1 X77.01 Y81.466 E30.04067
G1 X77.591 Y81.226 E30.06994
G1 X78.622 Y80.891 E30.12041
G1 X79.231 Y80.744 E30.14959
G1 X80.328 Y80.57 E30.20131
G1 X80.956 Y80.521 E30.23064
G1 X81.501 Y80.5 E30.25603
G1 X153.499 Y80.5 E33.60856
G1 X154.044 Y80.521 E33.63396
G1 X154.672 Y80.57 E33.66329
G1 X155.769 Y80.744 E33.71501
G1 X156.378 Y80.891 E33.74418
G1 X157.407 Y81.226 E33.79457
G1 X157.986 Y81.465 E33.82374
G1 X158.974 Y81.967 E33.87534
G1 X159.509 Y82.295 E33.90456
G1 X160.4 Y82.943 E33.95586
G1 X160.877 Y83.351 E33.98509
G1 X161.645 Y84.119 E34.03567
G1 X162.055 Y84.598 E34.06502
G1 X162.704 Y85.489 E34.11635
G1 X163.031 Y86.022 E34.14547
G1 X163.532 Y87.007 E34.19693
G1 X163.772 Y87.587 E34.22616
G1 X164.109 Y88.623 E34.27688
G1 X164.256 Y89.233 E34.3061
G1 X164.43 Y90.327 E34.35768
G1 X164.479 Y90.953 E34.38692
G1 X164.5 Y91.499 E34.41236
G1 X164.5 Y143.499 E36.8337
G1 X164.479 Y144.044 E36.8591
G1 X164.43 Y144.672 E36.88843
G1 X164.257 Y145.764 E36.93991
G1 X164.111 Y146.371 E36.96898
G1 X163.775 Y147.407 E37.0197
G1 X163.535 Y147.988 E37.04897
G1 X163.033 Y148.974 E37.10049
G1 X162.705 Y149.509 E37.12971
G1 X162.057 Y150.4 E37.18101
G1 X161.649 Y150.877 E37.21024
G1 X160.88 Y151.646 E37.26088
G1 X160.402 Y152.055 E37.29017
G1 X159.515 Y152.701 E37.34127
G1 X158.981 Y153.029 E37.37045
G1 X157.99 Y153.534 E37.42224
G1 X157.409 Y153.774 E37.45151
G1 X156.378 Y154.109 E37.50199
G1 X155.769 Y154.256 E37.53116
G1 X154.672 Y154.43 E37.58288
G1 X154.044 Y154.479 E37.61221
G1 X153.499 Y154.5 E37.63761
G1 X81.501 Y154.5 E40.99014
G1 X80.956 Y154.479 E41.01553
G1 X80.328 Y154.43 E41.04486
G1 X79.231 Y154.256 E41.09658
G1 X78.622 Y154.109 E41.12575
G1 X77.591 Y153.774 E41.17623
G1 X77.01 Y153.534 E41.2055
G1 X76.019 Y153.029 E41.25729
G1 X75.485 Y152.701 E41.28648
G1 X74.598 Y152.055 E41.33757
G1 X74.12 Y151.646 E41.36686
G1 X73.351 Y150.877 E41.4175
G1 X72.943 Y150.4 E41.44673
G1 X72.295 Y149.509 E41.49803
G1 X71.967 Y148.974 E41.52725
G1 X71.465 Y147.988 E41.57877
G1 X71.225 Y147.407 E41.60805
G1 X70.889 Y146.371 E41.65876
G1 X70.743 Y145.764 E41.68783
G1 X70.57 Y144.673 E41.73927
G1 X70.521 Y144.047 E41.76851
G1 X70.5 Y143.501 E41.79395
G1 X70.5 Y91.501 E44.21529
G1 X70.521 Y90.956 E44.24068
G1 X70.57 Y90.328 E44.27001
G1 X70.743 Y89.236 E44.3215
G1 X70.889 Y88.629 E44.35057
G1 X71.225 Y87.593 E44.40128
G1 X71.465 Y87.012 E44.43055
G1 X71.967 Y86.026 E44.48207
G1 X72.295 Y85.491 E44.51129
G1 X72.943 Y84.6 E44.56259
G1 X73.351 Y84.123 E44.59182
G1 X74.119 Y83.355 E44.6424
G0 F6000 X74.379 Y83.659
G1 F1200 X74.858 Y83.249 E44.67175
G1 X75.699 Y82.637 E44.72019
G1 X76.232 Y82.31 E44.7493
G1 X77.163 Y81.836 E44.79795
G1 X77.744 Y81.596 E44.82722
G1 X78.715 Y81.28 E44.87477
G1 X79.324 Y81.133 E44.90394
G1 X80.36 Y80.969 E44.95278
G1 X80.988 Y80.92 E44.98211
G1 X81.501 Y80.9 E45.00602
G1 X153.499 Y80.9 E48.35855
G1 X154.012 Y80.92 E48.38245
G1 X154.64 Y80.969 E48.41178
G1 X155.676 Y81.133 E48.46063
G1 X156.285 Y81.28 E48.4898
G1 X157.254 Y81.595 E48.53724
G1 X157.833 Y81.834 E48.56641
G1 X158.765 Y82.308 E48.6151
G1 X159.3 Y82.636 E48.64432
G1 X160.14 Y83.247 E48.69269
G1 X160.617 Y83.655 E48.72191
G1 X161.341 Y84.379 E48.76959
G1 X161.751 Y84.858 E48.79895
G1 X162.363 Y85.699 E48.84738
G1 X162.69 Y86.232 E48.8765
G1 X163.163 Y87.159 E48.92496
G1 X163.403 Y87.739 E48.95419
G1 X163.72 Y88.717 E49.00206
G1 X163.867 Y89.327 E49.03127
G1 X164.031 Y90.358 E49.07989
G1 X164.08 Y90.984 E49.10912
G1 X164.1 Y91.499 E49.13312
G1 X164.1 Y143.499 E51.55446
G1 X164.08 Y144.012 E51.57837
G1 X164.031 Y144.64 E51.6077
G1 X163.868 Y145.67 E51.65626
G1 X163.722 Y146.277 E51.68533
G1 X163.405 Y147.254 E51.73315
G1 X163.165 Y147.835 E51.76243
G1 X162.692 Y148.765 E51.81101
G1 X162.364 Y149.3 E51.84023
G1 X161.753 Y150.14 E51.8886
G1 X161.345 Y150.617 E51.91782
G1 X160.62 Y151.342 E51.96557
G1 X160.142 Y151.751 E51.99486
G1 X159.305 Y152.36 E52.04306
G1 X158.771 Y152.688 E52.07224
G1 X157.837 Y153.164 E52.12105
G1 X157.256 Y153.404 E52.15033
G1 X156.285 Y153.72 E52.19787
G1 X155.676 Y153.867 E52.22705
G1 X154.64 Y154.031 E52.27589
G1 X154.012 Y154.08 E52.30522
G1 X153.499 Y154.1 E52.32912
G1 X81.501 Y154.1 E55.68165
G1 X80.988 Y154.08 E55.70556
G1 X80.36 Y154.031 E55.73489
G1 X79.324 Y153.867 E55.78373
G1 X78.715 Y153.72 E55.8129
G1 X77.744 Y153.404 E55.86045
G1 X77.163 Y153.164 E55.88972
G1 X76.229 Y152.688 E55.93853
G1 X75.695 Y152.36 E55.96771
G1 X74.858 Y151.751 E56.01591
G1 X74.38 Y151.342 E56.04521
G1 X73.655 Y150.617 E56.09295
G1 X73.247 Y150.14 E56.12218
G1 X72.636 Y149.3 E56.17054
G1 X72.308 Y148.765 E56.19977
G1 X71.835 Y147.835 E56.24835
G1 X71.595 Y147.254 E56.27762
G1 X71.278 Y146.277 E56.32545
G1 X71.132 Y145.67 E56.35452
G1 X70.969 Y144.642 E56.40298
G1 X70.92 Y144.016 E56.43222
G1 X70.9 Y143.501 E56.45622
G1 X70.9 Y91.501 E58.87756
G1 X70.92 Y90.988 E58.90147
G1 X70.969 Y90.36 E58.9308
G1 X71.132 Y89.33 E58.97935
G1 X71.278 Y88.723 E59.00843
G1 X71.595 Y87.746 E59.05625
G1 X71.835 Y87.165 E59.08552
G1 X72.308 Y86.235 E59.13411
G1 X72.636 Y85.7 E59.16333
G1 X73.247 Y84.86 E59.2117
G1 X73.655 Y84.383 E59.24092
G1 X74.379 Y83.659 E59.2886
G0 F6000 X74.639 Y83.963
G1 F1200 X75.118 Y83.553 E59.31796
G1 X75.908 Y82.978 E59.36346
G1 X76.441 Y82.651 E59.39257
G1 X77.316 Y82.206 E59.43828
G1 X77.897 Y81.966 E59.46756
G1 X78.809 Y81.669 E59.51222
G1 X79.418 Y81.522 E59.54139
G1 X80.391 Y81.368 E59.58726
G1 X81.019 Y81.319 E59.61659
G1 X81.501 Y81.3 E59.63905
G1 X153.499 Y81.3 E62.99158
G1 X153.981 Y81.319 E63.01404
G1 X154.609 Y81.368 E63.04337
G1 X155.582 Y81.522 E63.08924
G1 X156.191 Y81.669 E63.11842
G1 X157.102 Y81.965 E63.16302
G1 X157.681 Y82.204 E63.19219
G1 X158.556 Y82.649 E63.2379
G1 X159.091 Y82.977 E63.26712
G1 X159.88 Y83.551 E63.31255
G1 X160.357 Y83.959 E63.34178
G1 X161.037 Y84.639 E63.38656
G1 X161.447 Y85.118 E63.41592
G1 X162.022 Y85.908 E63.46141
G1 X162.349 Y86.441 E63.49053
G1 X162.793 Y87.312 E63.53605
G1 X163.033 Y87.892 E63.56528
G1 X163.331 Y88.81 E63.61022
G1 X163.478 Y89.42 E63.63944
G1 X163.632 Y90.389 E63.68513
G1 X163.681 Y91.015 E63.71437
G1 X163.7 Y91.499 E63.73692
G1 X163.7 Y143.499 E66.15826
G1 X163.681 Y143.981 E66.18072
G1 X163.632 Y144.609 E66.21005
G1 X163.479 Y145.577 E66.25569
G1 X163.333 Y146.184 E66.28476
G1 X163.035 Y147.101 E66.32965
G1 X162.795 Y147.682 E66.35893
G1 X162.351 Y148.556 E66.40457
G1 X162.023 Y149.091 E66.43379
G1 X161.449 Y149.88 E66.47923
G1 X161.041 Y150.357 E66.50845
G1 X160.36 Y151.038 E66.5533
G1 X159.882 Y151.447 E66.58259
G1 X159.096 Y152.019 E66.62786
G1 X158.562 Y152.347 E66.65704
G1 X157.684 Y152.794 E66.70292
G1 X157.103 Y153.034 E66.73219
G1 X156.191 Y153.331 E66.77685
G1 X155.582 Y153.478 E66.80602
G1 X154.609 Y153.632 E66.85189
G1 X153.981 Y153.681 E66.88122
G1 X153.499 Y153.7 E66.90368
G1 X81.501 Y153.7 E70.25621
G1 X81.019 Y153.681 E70.27867
G1 X80.391 Y153.632 E70.30801
G1 X79.418 Y153.478 E70.35388
G1 X78.809 Y153.331 E70.38305
G1 X77.897 Y153.034 E70.42771
G1 X77.316 Y152.794 E70.45698
G1 X76.438 Y152.347 E70.50286
G1 X75.904 Y152.019 E70.53204
G1 X75.118 Y151.447 E70.5773
G1 X74.64 Y151.038 E70.6066
G1 X73.959 Y150.357 E70.65144
G1 X73.551 Y149.88 E70.68067
G1 X72.977 Y149.091 E70.7261
G1 X72.649 Y148.556 E70.75532
G1 X72.205 Y147.682 E70.80097
G1 X71.965 Y147.101 E70.83024
G1 X71.667 Y146.184 E70.87514
G1 X71.521 Y145.577 E70.90421
G1 X71.368 Y144.611 E70.94975
G1 X71.319 Y143.985 E70.97899
G1 X71.3 Y143.501 E71.00155
G1 X71.3 Y91.501 E73.42288
G1 X71.319 Y91.019 E73.44534
G1 X71.368 Y90.391 E73.47468
G1 X71.521 Y89.423 E73.52031
G1 X71.667 Y88.816 E73.54938
G1 X71.965 Y87.899 E73.59428
G1 X72.205 Y87.318 E73.62355
G1 X72.649 Y86.444 E73.6692
G1 X72.977 Y85.909 E73.69842
G1 X73.551 Y85.12 E73.74385
G1 X73.959 Y84.643 E73.77308
G1 X74.639 Y83.963 E73.81786
G0 F6000 X74.899 Y84.267
G1 F1200 X75.378 Y83.857 E73.84722
G1 X76.117 Y83.319 E73.88978
G1 X76.65 Y82.992 E73.9189
G1 X77.469 Y82.575 E73.96169
G1 X78.05 Y82.335 E73.99096
G1 X78.903 Y82.058 E74.03272
G1 X79.512 Y81.911 E74.0619
G1 X80.422 Y81.767 E74.1048
G1 X81.05 Y81.718 E74.13413
G1 X81.501 Y81.7 E74.15514
