;FLAVOR:Marlin
;TIME:20489
;Filament used: 21.3099m
;Layer height: 0.32
;MINX:69.7
;MINY:46.032
;MINZ:0.28
;MAXX:165.3
;MAXY:183.153
;MAXZ:83.16
;Generated with Cura_SteamEngine 5.2.2
M140 S50
M105
M190 S50
M104 S200
M105
M109 S200
M82 ;absolute extrusion mode
; Ender 3 Custom Start G-code
G92 E0 ; Reset Extruder
G28 ; Home all axes
G1 Z2.0 F3000 ; Move Z Axis up little to prevent scratching of Heat Bed
G1 X0.1 Y20 Z0.3 F5000.0 ; Move to start position
G1 X0.1 Y200.0 Z0.3 F1500.0 E15 ; Draw the first line
G1 X0.4 Y200.0 Z0.3 F5000.0 ; Move to side a little
G1 X0.4 Y20 Z0.3 F1500.0 E30 ; Draw the second line
G92 E0 ; Reset Extruder
G1 Z2.0 F3000 ; Move Z Axis up little to prevent scratching of Heat Bed
G1 X5 Y20 Z0.3 F5000.0 ; Move over to prevent blob squish
G92 E0
G92 E0
G1 F2700 E-5
;LAYER_COUNT:260
;LAYER:0
M107
G0 F6000 X71.097 Y49.378 Z0.28
;TYPE:SKIRT
G1 F2700 E0
G1 F1200 X71.58 Y48.754 E0.03307
G1 X72.123 Y48.181 E0.06615
G1 X72.722 Y47.666 E0.09926
G1 X73.37 Y47.215 E0.13234
G1 X74.061 Y46.831 E0.16547
G1 X74.786 Y46.519 E0.19855
G1 X75.539 Y46.282 E0.23163
G1 X76.313 Y46.123 E0.26475
G1 X77.098 Y46.042 E0.29782
G1 X77.5 Y46.032 E0.31467
G1 X157.5 Y46.033 E3.66729
G1 X158.289 Y46.073 E3.7004
G1 X159.069 Y46.193 E3.73347
G1 X159.834 Y46.39 E3.76658
G1 X160.574 Y46.664 E3.79965
G1 X161.283 Y47.012 E3.83275
G1 X161.954 Y47.43 E3.86588
G1 X162.578 Y47.913 E3.89895
G1 X163.151 Y48.457 E3.93206
G1 X163.666 Y49.055 E3.96513
G1 X164.117 Y49.703 E3.99822
G1 X164.501 Y50.394 E4.03135
G1 X164.813 Y51.119 E4.06442
G1 X165.05 Y51.872 E4.09751
G1 X165.209 Y52.646 E4.13062
G1 X165.29 Y53.431 E4.16369
G1 X165.3 Y53.833 E4.18054
G1 X165.3 Y152.64 E8.32132
G1 X165.26 Y153.429 E8.35443
G1 X165.141 Y154.209 E8.3875
G1 X164.943 Y154.974 E8.42061
G1 X164.669 Y155.714 E8.45368
G1 X164.321 Y156.423 E8.48678
G1 X163.903 Y157.094 E8.51991
G1 X163.42 Y157.718 E8.55298
G1 X162.877 Y158.291 E8.58606
G1 X162.278 Y158.806 E8.61917
G1 X161.63 Y159.257 E8.65226
G1 X160.939 Y159.641 E8.68538
G1 X160.214 Y159.953 E8.71846
G1 X159.461 Y160.19 E8.75154
G1 X158.687 Y160.349 E8.78466
G1 X157.902 Y160.43 E8.81773
G1 X157.5 Y160.44 E8.83458
G1 X77.5 Y160.44 E12.1872
G1 X76.711 Y160.4 E12.22031
G1 X75.931 Y160.281 E12.25338
G1 X75.166 Y160.083 E12.28649
G1 X74.426 Y159.809 E12.31956
G1 X73.717 Y159.461 E12.35266
G1 X73.046 Y159.043 E12.38579
G1 X72.422 Y158.56 E12.41886
G1 X71.849 Y158.017 E12.45194
G1 X71.334 Y157.418 E12.48505
G1 X70.883 Y156.77 E12.51814
G1 X70.499 Y156.079 E12.55126
G1 X70.187 Y155.354 E12.58434
G1 X69.95 Y154.601 E12.61742
G1 X69.791 Y153.827 E12.65054
G1 X69.71 Y153.042 E12.68361
G1 X69.7 Y152.64 E12.70046
G1 X69.7 Y53.832 E16.84129
G1 X69.74 Y53.043 E16.87439
G1 X69.859 Y52.263 E16.90746
G1 X70.057 Y51.498 E16.94058
G1 X70.331 Y50.758 E16.97365
G1 X70.679 Y50.049 E17.00674
G1 X71.097 Y49.378 E17.03987
G0 F6000 X71.494 Y49.509
G1 F1200 X71.975 Y48.909 E17.0721
G1 X72.516 Y48.362 E17.10434
G1 X73.111 Y47.874 E17.13659
G1 X73.753 Y47.451 E17.16881
G1 X74.436 Y47.096 E17.20107
G1 X75.151 Y46.815 E17.23327
G1 X75.893 Y46.609 E17.26554
G1 X76.651 Y46.481 E17.29775
G1 X77.5 Y46.432 E17.33339
G1 X157.5 Y46.433 E20.68601
G1 X158.268 Y46.473 E20.71824
G1 X159.028 Y46.592 E20.75048
G1 X159.771 Y46.79 E20.7827
G1 X160.49 Y47.064 E20.81495
G1 X161.177 Y47.411 E20.8472
G1 X161.823 Y47.827 E20.8794
G1 X162.423 Y48.308 E20.91163
G1 X162.97 Y48.849 E20.94387
G1 X163.458 Y49.444 E20.97612
G1 X163.881 Y50.086 E21.00834
G1 X164.236 Y50.769 E21.0406
G1 X164.517 Y51.485 E21.07283
G1 X164.723 Y52.226 E21.10507
G1 X164.851 Y52.984 E21.13728
G1 X164.9 Y53.833 E21.17292
G1 X164.9 Y152.64 E25.3137
G1 X164.86 Y153.408 E25.34593
G1 X164.741 Y154.168 E25.37817
G1 X164.543 Y154.911 E25.41039
G1 X164.269 Y155.63 E25.44264
G1 X163.922 Y156.316 E25.47486
G1 X163.506 Y156.963 E25.50709
G1 X163.025 Y157.563 E25.53932
G1 X162.484 Y158.11 E25.57156
G1 X161.889 Y158.598 E25.60381
G1 X161.247 Y159.021 E25.63603
G1 X160.564 Y159.376 E25.66829
G1 X159.849 Y159.657 E25.70048
G1 X159.107 Y159.863 E25.73275
G1 X158.349 Y159.991 E25.76497
G1 X157.5 Y160.04 E25.80061
G1 X77.5 Y160.04 E29.15323
G1 X76.732 Y160 E29.18546
G1 X75.972 Y159.881 E29.2177
G1 X75.229 Y159.683 E29.24992
G1 X74.51 Y159.409 E29.28217
G1 X73.824 Y159.062 E29.31438
G1 X73.177 Y158.646 E29.34662
G1 X72.577 Y158.165 E29.37885
G1 X72.03 Y157.624 E29.41109
G1 X71.542 Y157.029 E29.44334
G1 X71.119 Y156.387 E29.47556
G1 X70.764 Y155.704 E29.50781
G1 X70.483 Y154.989 E29.54001
G1 X70.277 Y154.247 E29.57228
G1 X70.149 Y153.489 E29.6045
G1 X70.1 Y152.64 E29.64014
G1 X70.1 Y53.832 E33.78096
G1 X70.14 Y53.064 E33.81319
G1 X70.259 Y52.304 E33.84543
G1 X70.457 Y51.561 E33.87765
G1 X70.731 Y50.842 E33.9099
G1 X71.078 Y50.156 E33.94211
G1 X71.494 Y49.509 E33.97435
G0 F6000 X71.892 Y49.643
G1 F1200 X72.371 Y49.069 E34.00568
G1 X72.908 Y48.548 E34.03703
G1 X73.498 Y48.089 E34.06836
G1 X74.134 Y47.694 E34.09974
G1 X74.808 Y47.37 E34.13108
G1 X75.513 Y47.12 E34.16242
G1 X76.241 Y46.946 E34.19379
G1 X76.983 Y46.851 E34.22514
G1 X77.5 Y46.832 E34.24682
G1 X157.5 Y46.833 E37.59944
G1 X158.247 Y46.873 E37.63079
G1 X158.986 Y46.992 E37.66216
G1 X159.707 Y47.19 E37.6935
G1 X160.403 Y47.463 E37.72483
G1 X161.066 Y47.81 E37.75619
G1 X161.689 Y48.225 E37.78756
G1 X162.263 Y48.704 E37.81889
G1 X162.784 Y49.241 E37.85025
G1 X163.243 Y49.831 E37.88157
G1 X163.638 Y50.467 E37.91295
G1 X163.962 Y51.141 E37.94429
G1 X164.212 Y51.846 E37.97564
G1 X164.386 Y52.574 E38.007
G1 X164.481 Y53.316 E38.03835
G1 X164.5 Y53.833 E38.06003
G1 X164.5 Y152.64 E42.20082
G1 X164.46 Y153.387 E42.23216
G1 X164.341 Y154.125 E42.26349
G1 X164.143 Y154.847 E42.29487
G1 X163.87 Y155.543 E42.3262
G1 X163.523 Y156.206 E42.35756
G1 X163.108 Y156.829 E42.38893
G1 X162.629 Y157.403 E42.42026
G1 X162.092 Y157.924 E42.45162
G1 X161.502 Y158.383 E42.48294
G1 X160.866 Y158.778 E42.51432
G1 X160.192 Y159.102 E42.54566
G1 X159.487 Y159.352 E42.57701
G1 X158.759 Y159.526 E42.60837
G1 X158.017 Y159.621 E42.63972
G1 X157.5 Y159.64 E42.6614
G1 X77.5 Y159.64 E46.01403
G1 X76.753 Y159.6 E46.04538
G1 X76.015 Y159.481 E46.0767
G1 X75.293 Y159.283 E46.10808
G1 X74.597 Y159.01 E46.13941
G1 X73.934 Y158.663 E46.17077
G1 X73.311 Y158.248 E46.20214
G1 X72.737 Y157.769 E46.23347
G1 X72.216 Y157.232 E46.26483
G1 X71.757 Y156.642 E46.29615
G1 X71.362 Y156.006 E46.32753
G1 X71.038 Y155.332 E46.35887
G1 X70.788 Y154.627 E46.39022
G1 X70.614 Y153.899 E46.42158
G1 X70.519 Y153.157 E46.45293
G1 X70.5 Y152.64 E46.47461
G1 X70.5 Y53.832 E50.61544
G1 X70.54 Y53.085 E50.64679
G1 X70.659 Y52.347 E50.67811
G1 X70.857 Y51.625 E50.70949
G1 X71.13 Y50.929 E50.74082
G1 X71.477 Y50.266 E50.77218
G1 X71.892 Y49.643 E50.80355
G0 F6000 X72.289 Y49.782
G1 F1200 X72.765 Y49.234 E50.83397
G1 X73.299 Y48.741 E50.86443
G1 X73.884 Y48.311 E50.89486
G1 X74.513 Y47.947 E50.92531
G1 X75.178 Y47.654 E50.95576
G1 X75.871 Y47.436 E50.98621
G1 X76.583 Y47.296 E51.01662
G1 X77.5 Y47.232 E51.05514
G1 X157.5 Y47.233 E54.40776
G1 X158.225 Y47.273 E54.43819
G1 X158.942 Y47.392 E54.46865
G1 X159.641 Y47.59 E54.4991
G1 X160.314 Y47.863 E54.52953
G1 X160.953 Y48.208 E54.55997
G1 X161.55 Y48.622 E54.59041
G1 X162.098 Y49.098 E54.62083
G1 X162.591 Y49.632 E54.65129
G1 X163.021 Y50.217 E54.68172
G1 X163.385 Y50.846 E54.71217
G1 X163.678 Y51.511 E54.74263
G1 X163.896 Y52.204 E54.77307
G1 X164.036 Y52.916 E54.80348
G1 X164.1 Y53.833 E54.842
G1 X164.1 Y152.64 E58.98278
G1 X164.06 Y153.365 E59.01321
G1 X163.941 Y154.082 E59.04367
G1 X163.743 Y154.781 E59.07412
G1 X163.47 Y155.454 E59.10456
G1 X163.125 Y156.093 E59.13499
G1 X162.711 Y156.69 E59.16543
G1 X162.235 Y157.238 E59.19585
G1 X161.701 Y157.731 E59.22631
G1 X161.116 Y158.161 E59.25674
G1 X160.487 Y158.525 E59.28719
G1 X159.822 Y158.818 E59.31765
G1 X159.129 Y159.036 E59.34809
G1 X158.417 Y159.176 E59.3785
G1 X157.5 Y159.24 E59.41702
G1 X77.5 Y159.24 E62.76965
G1 X76.775 Y159.2 E62.80008
G1 X76.058 Y159.081 E62.83053
G1 X75.359 Y158.883 E62.86098
G1 X74.686 Y158.61 E62.89142
G1 X74.047 Y158.265 E62.92185
G1 X73.45 Y157.851 E62.9523
G1 X72.902 Y157.375 E62.98272
G1 X72.409 Y156.841 E63.01317
G1 X71.979 Y156.256 E63.0436
G1 X71.615 Y155.627 E63.07405
G1 X71.322 Y154.962 E63.10451
G1 X71.104 Y154.269 E63.13495
G1 X70.964 Y153.557 E63.16536
G1 X70.9 Y152.64 E63.20389
G1 X70.9 Y53.832 E67.34471
G1 X70.94 Y53.107 E67.37514
G1 X71.059 Y52.39 E67.4056
G1 X71.257 Y51.691 E67.43604
G1 X71.53 Y51.018 E67.46648
G1 X71.875 Y50.379 E67.49691
G1 X72.289 Y49.782 E67.52736
G0 F6000 X72.685 Y49.926
G1 F1200 X73.159 Y49.405 E67.55688
G1 X73.689 Y48.941 E67.5864
G1 X74.268 Y48.541 E67.61589
G1 X74.889 Y48.209 E67.6454
G1 X75.543 Y47.949 E67.67489
G1 X76.223 Y47.765 E67.70442
G1 X76.919 Y47.659 E67.73392
G1 X77.5 Y47.632 E67.75829
G1 X157.5 Y47.633 E71.11092
G1 X158.203 Y47.673 E71.14042
G1 X158.897 Y47.792 E71.16993
G1 X159.573 Y47.99 E71.19945
G1 X160.222 Y48.262 E71.22894
G1 X160.836 Y48.607 E71.25846
G1 X161.407 Y49.019 E71.28797
G1 X161.927 Y49.492 E71.31743
G1 X162.391 Y50.022 E71.34695
G1 X162.791 Y50.601 E71.37644
G1 X163.123 Y51.222 E71.40595
G1 X163.383 Y51.876 E71.43544
G1 X163.567 Y52.556 E71.46496
G1 X163.673 Y53.252 E71.49447
G1 X163.7 Y53.833 E71.51884
G1 X163.7 Y152.64 E75.65962
G1 X163.66 Y153.343 E75.68913
G1 X163.541 Y154.037 E75.71864
G1 X163.343 Y154.712 E75.74812
G1 X163.071 Y155.361 E75.77761
G1 X162.726 Y155.975 E75.80713
G1 X162.315 Y156.546 E75.83661
G1 X161.841 Y157.067 E75.86613
G1 X161.311 Y157.531 E75.89565
G1 X160.732 Y157.931 E75.92514
G1 X160.111 Y158.263 E75.95465
G1 X159.457 Y158.523 E75.98415
G1 X158.777 Y158.707 E76.01367
G1 X158.081 Y158.813 E76.04317
G1 X157.5 Y158.84 E76.06755
G1 X77.5 Y158.84 E79.42017
G1 X76.797 Y158.8 E79.44968
G1 X76.103 Y158.681 E79.47918
G1 X75.428 Y158.483 E79.50866
G1 X74.779 Y158.211 E79.53815
G1 X74.165 Y157.866 E79.56767
G1 X73.594 Y157.455 E79.59715
G1 X73.073 Y156.981 E79.62667
G1 X72.609 Y156.451 E79.65619
G1 X72.209 Y155.872 E79.68568
G1 X71.877 Y155.251 E79.71519
G1 X71.617 Y154.597 E79.74469
G1 X71.433 Y153.917 E79.77421
G1 X71.327 Y153.221 E79.80371
G1 X71.3 Y152.64 E79.82809
G1 X71.3 Y53.832 E83.96891
G1 X71.34 Y53.129 E83.99842
G1 X71.459 Y52.435 E84.02793
G1 X71.657 Y51.76 E84.05741
G1 X71.929 Y51.111 E84.0869
G1 X72.274 Y50.497 E84.11641
G1 X72.685 Y49.926 E84.1459
G0 F6000 X73.082 Y50.074
G1 F1200 X73.553 Y49.583 E84.17441
G1 X74.078 Y49.149 E84.20296
G1 X74.65 Y48.78 E84.23148
G1 X75.262 Y48.481 E84.26003
G1 X75.904 Y48.256 E84.28854
G1 X76.569 Y48.107 E84.3171
G1 X77.5 Y48.032 E84.35624
G1 X157.5 Y48.033 E87.70886
G1 X158.18 Y48.073 E87.73741
G1 X158.85 Y48.192 E87.76593
G1 X159.502 Y48.389 E87.79447
G1 X160.126 Y48.662 E87.82301
G1 X160.714 Y49.005 E87.85154
G1 X161.258 Y49.415 E87.88009
G1 X161.749 Y49.886 E87.9086
G1 X162.183 Y50.411 E87.93715
G1 X162.552 Y50.983 E87.96567
G1 X162.851 Y51.595 E87.99422
G1 X163.076 Y52.237 E88.02273
G1 X163.225 Y52.902 E88.05129
G1 X163.3 Y53.833 E88.09043
G1 X163.3 Y152.64 E92.23121
G1 X163.26 Y153.32 E92.25976
G1 X163.141 Y153.99 E92.28828
G1 X162.944 Y154.642 E92.31682
G1 X162.672 Y155.266 E92.34535
G1 X162.328 Y155.854 E92.3739
G1 X161.918 Y156.398 E92.40244
G1 X161.447 Y156.889 E92.43096
G1 X160.922 Y157.323 E92.4595
G1 X160.35 Y157.692 E92.48803
G1 X159.738 Y157.991 E92.51657
G1 X159.096 Y158.216 E92.54508
G1 X158.431 Y158.365 E92.57364
G1 X157.5 Y158.44 E92.61279
G1 X77.5 Y158.44 E95.96541
G1 X76.82 Y158.4 E95.99395
G1 X76.15 Y158.281 E96.02247
G1 X75.498 Y158.084 E96.05102
G1 X74.874 Y157.812 E96.07954
G1 X74.286 Y157.468 E96.10809
G1 X73.742 Y157.058 E96.13664
G1 X73.251 Y156.587 E96.16515
G1 X72.817 Y156.062 E96.1937
G1 X72.448 Y155.49 E96.22222
G1 X72.149 Y154.878 E96.25077
G1 X71.924 Y154.236 E96.27928
G1 X71.775 Y153.571 E96.30784
G1 X71.7 Y152.64 E96.34698
G1 X71.7 Y53.832 E100.4878
G1 X71.74 Y53.152 E100.51635
G1 X71.859 Y52.482 E100.54487
G1 X72.056 Y51.83 E100.57341
G1 X72.328 Y51.206 E100.60194
G1 X72.672 Y50.618 E100.63049
G1 X73.082 Y50.074 E100.65904
G0 F6000 X73.478 Y50.229
G1 F1200 X73.945 Y49.767 E100.68656
G1 X74.465 Y49.366 E100.71408
G1 X75.029 Y49.03 E100.7416
G1 X75.631 Y48.766 E100.76914
G1 X76.26 Y48.576 E100.79668
G1 X76.907 Y48.465 E100.82419
G1 X77.5 Y48.432 E100.84908
G1 X157.5 Y48.433 E104.2017
G1 X158.156 Y48.473 E104.22925
G1 X158.802 Y48.592 E104.25677
G1 X159.429 Y48.789 E104.28432
G1 X160.027 Y49.061 E104.31185
G1 X160.588 Y49.403 E104.33938
G1 X161.103 Y49.811 E104.36692
G1 X161.565 Y50.278 E104.39445
G1 X161.966 Y50.798 E104.42197
G1 X162.302 Y51.363 E104.44951
G1 X162.566 Y51.964 E104.47702
G1 X162.756 Y52.593 E104.50456
G1 X162.867 Y53.24 E104.53207
G1 X162.9 Y53.833 E104.55696
G1 X162.9 Y152.64 E108.69774
G1 X162.86 Y153.296 E108.72528
G1 X162.741 Y153.942 E108.75281
G1 X162.544 Y154.569 E108.78035
G1 X162.272 Y155.167 E108.80789
G1 X161.93 Y155.728 E108.83542
G1 X161.522 Y156.243 E108.86295
G1 X161.055 Y156.705 E108.89048
G1 X160.535 Y157.106 E108.918
G1 X159.971 Y157.442 E108.94552
G1 X159.369 Y157.706 E108.97306
G1 X158.74 Y157.896 E109.0006
G1 X158.093 Y158.007 E109.02811
G1 X157.5 Y158.04 E109.053
G1 X77.5 Y158.04 E112.40562
G1 X76.844 Y158 E112.43316
G1 X76.198 Y157.881 E112.46069
G1 X75.571 Y157.684 E112.48823
G1 X74.973 Y157.412 E112.51577
G1 X74.412 Y157.07 E112.5433
G1 X73.897 Y156.662 E112.57084
G1 X73.435 Y156.195 E112.59837
G1 X73.034 Y155.675 E112.62588
G1 X72.698 Y155.111 E112.6534
G1 X72.434 Y154.509 E112.68094
G1 X72.244 Y153.88 E112.70848
G1 X72.133 Y153.233 E112.73599
G1 X72.1 Y152.64 E112.76088
G1 X72.1 Y53.832 E116.9017
G1 X72.14 Y53.176 E116.92925
G1 X72.259 Y52.53 E116.95677
G1 X72.456 Y51.903 E116.98432
G1 X72.728 Y51.305 E117.01185
G1 X73.07 Y50.744 E117.03938
G1 X73.478 Y50.229 E117.06692
G0 F6000 X73.873 Y50.391
G1 F1200 X74.336 Y49.961 E117.0934
G1 X74.85 Y49.592 E117.11991
G1 X75.406 Y49.292 E117.14639
G1 X75.995 Y49.064 E117.17286
G1 X76.609 Y48.912 E117.19937
G1 X77.5 Y48.832 E117.23686
G1 X157.5 Y48.833 E120.58948
G1 X158.131 Y48.873 E120.61598
G1 X158.752 Y48.992 E120.64247
G1 X159.353 Y49.189 E120.66898
G1 X159.924 Y49.46 E120.69547
G1 X160.456 Y49.8 E120.72193
G1 X160.941 Y50.206 E120.74843
G1 X161.371 Y50.669 E120.77491
G1 X161.74 Y51.183 E120.80143
G1 X162.04 Y51.739 E120.82791
G1 X162.268 Y52.328 E120.85438
G1 X162.42 Y52.942 E120.88088
G1 X162.5 Y53.833 E120.91837
G1 X162.5 Y152.64 E125.05915
G1 X162.46 Y153.271 E125.08565
G1 X162.341 Y153.892 E125.11215
G1 X162.144 Y154.492 E125.13861
G1 X161.873 Y155.064 E125.16514
G1 X161.533 Y155.596 E125.1916
G1 X161.127 Y156.081 E125.21811
G1 X160.664 Y156.511 E125.24459
G1 X160.15 Y156.88 E125.2711
G1 X159.594 Y157.18 E125.29758
G1 X159.005 Y157.408 E125.32405
G1 X158.391 Y157.56 E125.35056
G1 X157.5 Y157.64 E125.38805
G1 X77.5 Y157.64 E128.74067
G1 X76.869 Y157.6 E128.76716
G1 X76.248 Y157.481 E128.79366
G1 X75.648 Y157.284 E128.82013
G1 X75.076 Y157.013 E128.84665
G1 X74.544 Y156.673 E128.87311
G1 X74.059 Y156.267 E128.89962
G1 X73.629 Y155.804 E128.9261
G1 X73.26 Y155.29 E128.95262
G1 X72.96 Y154.734 E128.97909
G1 X72.732 Y154.145 E129.00556
G1 X72.58 Y153.531 E129.03207
G1 X72.5 Y152.64 E129.06956
G1 X72.5 Y53.832 E133.21038
G1 X72.54 Y53.201 E133.23688
G1 X72.659 Y52.58 E133.26338
G1 X72.856 Y51.98 E133.28984
G1 X73.127 Y51.408 E133.31637
G1 X73.467 Y50.876 E133.34283
G1 X73.873 Y50.391 E133.36933
G0 F6000 X74.267 Y50.56
G1 F1200 X74.725 Y50.163 E133.39474
G1 X75.232 Y49.83 E133.42016
G1 X75.778 Y49.566 E133.44557
G1 X76.354 Y49.377 E133.47098
G1 X76.95 Y49.265 E133.49639
G1 X77.5 Y49.232 E133.51948
G1 X157.5 Y49.233 E136.8721
G1 X158.105 Y49.273 E136.89751
G1 X158.7 Y49.392 E136.92294
G1 X159.273 Y49.588 E136.94832
G1 X159.816 Y49.859 E136.97375
G1 X160.319 Y50.198 E136.99917
G1 X160.772 Y50.6 E137.02456
G1 X161.169 Y51.058 E137.04996
G1 X161.502 Y51.565 E137.07538
G1 X161.766 Y52.111 E137.10079
G1 X161.955 Y52.687 E137.1262
G1 X162.067 Y53.283 E137.15161
G1 X162.1 Y53.833 E137.1747
G1 X162.1 Y152.64 E141.31548
G1 X162.06 Y153.245 E141.34089
G1 X161.941 Y153.839 E141.36628
G1 X161.745 Y154.413 E141.3917
