;FLAVOR:Marlin
;TIME:6643
;Filament used: 4.47713m
;Layer height: 0.28
;MINX:65.469
;MINY:64.5
;MINZ:0.28
;MAXX:164
;MAXY:167.7
;MAXZ:57.96
;Generated with Cura_SteamEngine 5.2.2
M140 S50
M105
M190 S50
M104 S200
M105
M109 S200
M82 ;absolute extrusion mode
; Ender 3 Custom Start G-code
G92 E0 ; Reset Extruder
G28 ; Home all axes
G1 Z2.0 F3000 ; Move Z Axis up little to prevent scratching of Heat Bed
G1 X0.1 Y20 Z0.3 F5000.0 ; Move to start position
G1 X0.1 Y200.0 Z0.3 F1500.0 E15 ; Draw the first line
G1 X0.4 Y200.0 Z0.3 F5000.0 ; Move to side a little
G1 X0.4 Y20 Z0.3 F1500.0 E30 ; Draw the second line
G92 E0 ; Reset Extruder
G1 Z2.0 F3000 ; Move Z Axis up little to prevent scratching of Heat Bed
G1 X5 Y20 Z0.3 F5000.0 ; Move over to prevent blob squish
G92 E0
G92 E0
G1 F2700 E-5
;LAYER_COUNT:207
;LAYER:0
M107
G0 F6000 X75.355 Y73.155 Z0.28
;TYPE:SKIRT
G1 F2700 E0
G1 F1200 X76.029 Y72.503 E0.03712
G1 X76.687 Y71.961 E0.07086
G1 X77.165 Y71.598 E0.09461
G1 X77.936 Y71.063 E0.13176
G1 X78.427 Y70.77 E0.15439
G1 X78.989 Y70.46 E0.17979
G1 X79.308 Y70.294 E0.19402
G1 X80.47 Y69.773 E0.24443
G1 X81.215 Y69.503 E0.27579
G1 X81.624 Y69.37 E0.29281
G1 X82.528 Y69.118 E0.32996
G1 X83.024 Y69.015 E0.35001
G1 X83.667 Y68.902 E0.37585
G1 X84.56 Y68.768 E0.41159
G1 X86.43 Y68.512 E0.48629
G1 X88.922 Y68.1 E0.58626
G1 X91.364 Y67.625 E0.68473
G1 X93.828 Y67.074 E0.78466
G1 X96.264 Y66.454 E0.88415
G1 X98.739 Y65.75 E0.98599
G1 X100.57 Y65.183 E1.06186
G1 X101.215 Y65.005 E1.08834
G1 X101.715 Y64.883 E1.10871
G1 X102.995 Y64.649 E1.16021
G1 X103.8 Y64.567 E1.19224
G1 X104.301 Y64.533 E1.21212
G1 X104.905 Y64.509 E1.23604
G1 X105.672 Y64.5 E1.2664
G1 X129.456 Y64.501 E2.20776
G1 X130.196 Y64.512 E2.23705
G1 X130.98 Y64.552 E2.26812
G1 X131.605 Y64.606 E2.29295
G1 X132.535 Y64.726 E2.33007
G1 X133.223 Y64.866 E2.35786
G1 X133.749 Y64.994 E2.37928
G1 X134.178 Y65.11 E2.39687
G1 X135.313 Y65.447 E2.44373
G1 X136.473 Y65.81 E2.49184
G1 X138.937 Y66.505 E2.59317
G1 X141.338 Y67.11 E2.69117
G1 X143.814 Y67.66 E2.79156
G1 X146.295 Y68.138 E2.89156
G1 X148.795 Y68.545 E2.99181
G1 X151.035 Y68.854 E3.08131
G1 X151.928 Y69.005 E3.11716
G1 X152.843 Y69.211 E3.15428
G1 X153.551 Y69.428 E3.18359
G1 X154.174 Y69.642 E3.20966
G1 X155.047 Y69.984 E3.24677
G1 X155.591 Y70.243 E3.27062
G1 X156.202 Y70.564 E3.29793
G1 X156.569 Y70.77 E3.31459
G1 X157.367 Y71.263 E3.35172
G1 X157.937 Y71.678 E3.37962
G1 X158.454 Y72.08 E3.40554
G1 X159.169 Y72.687 E3.44267
G1 X159.606 Y73.114 E3.46685
G1 X160.098 Y73.636 E3.49524
G1 X160.358 Y73.928 E3.51071
G1 X161.15 Y74.928 E3.5612
G1 X161.564 Y75.539 E3.59042
G1 X161.801 Y75.913 E3.60794
G1 X162.268 Y76.726 E3.64505
G1 X162.498 Y77.194 E3.66569
G1 X162.757 Y77.77 E3.69068
G1 X162.911 Y78.135 E3.70636
G1 X163.238 Y79.014 E3.74348
G1 X163.375 Y79.467 E3.76222
G1 X163.542 Y80.097 E3.78801
G1 X163.632 Y80.475 E3.80339
G1 X163.851 Y81.695 E3.85245
G1 X163.933 Y82.5 E3.88448
G1 X163.966 Y82.986 E3.90376
G1 X163.99 Y83.577 E3.92717
G1 X164 Y84.372 E3.95864
G1 X163.999 Y108.107 E4.89806
G1 X163.989 Y108.856 E4.9277
G1 X163.965 Y109.456 E4.95147
G1 X163.945 Y109.75 E4.96313
G1 X163.881 Y110.443 E4.99068
G1 X163.681 Y111.706 E5.04129
G1 X163.508 Y112.437 E5.07102
G1 X163.395 Y112.857 E5.08824
G1 X162.507 Y115.972 E5.21644
G1 X161.881 Y118.449 E5.31756
G1 X161.333 Y120.906 E5.4172
G1 X160.862 Y123.345 E5.51552
G1 X160.453 Y125.84 E5.61558
G1 X160.114 Y128.341 E5.71548
G1 X159.846 Y130.857 E5.81562
G1 X159.653 Y133.323 E5.91353
G1 X159.526 Y135.867 E6.01434
G1 X159.469 Y139.105 E6.14252
G1 X159.468 Y143.608 E6.32075
G1 X159.458 Y144.321 E6.34897
G1 X159.405 Y145.258 E6.38611
G1 X159.272 Y146.186 E6.42322
G1 X159.061 Y147.1 E6.46035
G1 X158.772 Y147.992 E6.49746
G1 X158.409 Y148.857 E6.53459
G1 X157.973 Y149.687 E6.5717
G1 X157.469 Y150.478 E6.60882
G1 X156.898 Y151.222 E6.64594
G1 X156.267 Y151.916 E6.68306
G1 X155.578 Y152.553 E6.7202
G1 X154.838 Y153.128 E6.75729
G1 X154.091 Y153.616 E6.79261
G1 X153.564 Y153.93 E6.81689
G1 X151.352 Y155.294 E6.91975
G1 X149.214 Y156.695 E7.02092
G1 X147.182 Y158.113 E7.11899
G1 X145.171 Y159.601 E7.218
G1 X143.165 Y161.176 E7.31895
G1 X141.211 Y162.8 E7.41951
G1 X139.721 Y164.105 E7.49791
G1 X138.798 Y164.83 E7.54436
G1 X138.122 Y165.289 E7.5767
G1 X137.767 Y165.513 E7.59331
G1 X136.543 Y166.18 E7.64849
G1 X135.984 Y166.433 E7.67277
G1 X135.583 Y166.603 E7.69001
G1 X134.705 Y166.932 E7.72712
G1 X133.987 Y167.14 E7.75671
G1 X133.374 Y167.295 E7.78173
G1 X132.005 Y167.551 E7.83686
G1 X131.2 Y167.633 E7.86888
G1 X130.699 Y167.667 E7.88876
G1 X130.095 Y167.691 E7.91268
G1 X129.329 Y167.7 E7.943
G1 X105.544 Y167.699 E8.8844
G1 X104.804 Y167.688 E8.91369
G1 X104.016 Y167.648 E8.94492
G1 X103.394 Y167.594 E8.96963
G1 X102.464 Y167.473 E9.00675
G1 X101.77 Y167.332 E9.03478
G1 X101.253 Y167.206 E9.05585
G1 X100.842 Y167.095 E9.0727
G1 X99.59 Y166.674 E9.12498
G1 X98.895 Y166.382 E9.15481
G1 X98.542 Y166.221 E9.17017
G1 X97.324 Y165.57 E9.22483
G1 X94.641 Y163.912 E9.34966
G1 X92.465 Y162.654 E9.44914
G1 X90.223 Y161.441 E9.55004
G1 X88.003 Y160.32 E9.64847
G1 X85.729 Y159.252 E9.74791
G1 X83.416 Y158.245 E9.84775
G1 X81.037 Y157.288 E9.94925
G1 X78.732 Y156.435 E10.04652
G1 X76.328 Y155.622 E10.14697
G1 X73.268 Y154.688 E10.2736
G1 X72.383 Y154.376 E10.31074
G1 X71.528 Y153.99 E10.34787
G1 X70.71 Y153.533 E10.38495
G1 X69.933 Y153.007 E10.42209
G1 X69.204 Y152.417 E10.45921
G1 X68.527 Y151.768 E10.49633
G1 X67.909 Y151.063 E10.53344
G1 X67.352 Y150.308 E10.57057
G1 X66.863 Y149.508 E10.60768
G1 X66.443 Y148.669 E10.64482
G1 X66.096 Y147.798 E10.68193
G1 X65.824 Y146.9 E10.71906
G1 X65.63 Y145.983 E10.75616
G1 X65.515 Y145.052 E10.79329
G1 X65.485 Y144.53 E10.81398
G1 X65.469 Y143.864 E10.84035
G1 X65.47 Y117.72 E11.87512
G1 X65.481 Y117.011 E11.90318
G1 X65.536 Y116.075 E11.94029
G1 X65.67 Y115.147 E11.97741
G1 X65.883 Y114.233 E12.01455
G1 X66.059 Y113.661 E12.03824
G1 X66.289 Y112.98 E12.06669
G1 X67.112 Y110.421 E12.17308
G1 X67.799 Y108.059 E12.27044
G1 X68.437 Y105.607 E12.37072
G1 X69.012 Y103.108 E12.47222
G1 X69.493 Y100.708 E12.5691
G1 X69.924 Y98.196 E12.66997
G1 X70.28 Y95.694 E12.77
G1 X70.563 Y93.213 E12.86883
G1 X70.777 Y90.698 E12.96873
G1 X70.918 Y88.216 E13.06713
G1 X70.992 Y85.573 E13.17178
G1 X71.012 Y83.56 E13.25146
G1 X71.052 Y82.722 E13.28466
G1 X71.106 Y82.096 E13.30953
G1 X71.226 Y81.166 E13.34664
G1 X71.339 Y80.603 E13.36937
G1 X71.492 Y79.968 E13.39522
G1 X71.604 Y79.551 E13.41231
G1 X71.885 Y78.656 E13.44944
G1 X72.057 Y78.212 E13.46829
G1 X72.308 Y77.62 E13.49374
G1 X72.467 Y77.269 E13.50899
G1 X73.128 Y76.028 E13.56464
G1 X73.514 Y75.422 E13.59308
G1 X73.745 Y75.081 E13.60938
G1 X74.546 Y74.038 E13.66143
G1 X75.012 Y73.517 E13.6891
G1 X75.355 Y73.155 E13.70883
G0 F6000 X75.645 Y73.43
G1 F1200 X76.307 Y72.79 E13.74528
G1 X76.929 Y72.279 E13.77714
G1 X77.407 Y71.916 E13.8009
G1 X78.164 Y71.392 E13.83734
G1 X78.623 Y71.118 E13.85849
G1 X79.174 Y70.815 E13.88338
G1 X79.493 Y70.649 E13.89761
G1 X80.612 Y70.146 E13.94617
G1 X81.339 Y69.884 E13.97676
G1 X81.748 Y69.751 E13.99378
G1 X82.635 Y69.504 E14.03022
G1 X83.097 Y69.408 E14.0489
G1 X83.727 Y69.297 E14.07422
G1 X84.47 Y69.185 E14.10396
G1 X86.478 Y68.91 E14.18418
G1 X88.965 Y68.499 E14.28395
G1 X91.484 Y68.009 E14.38552
G1 X93.917 Y67.464 E14.4842
G1 X96.367 Y66.841 E14.58426
G1 X98.828 Y66.141 E14.68552
G1 X100.688 Y65.565 E14.76259
G1 X101.31 Y65.393 E14.78813
G1 X101.81 Y65.271 E14.8085
G1 X103.043 Y65.047 E14.85811
G1 X103.827 Y64.966 E14.8893
G1 X104.328 Y64.932 E14.90918
G1 X104.911 Y64.909 E14.93227
G1 X105.672 Y64.9 E14.96239
G1 X129.451 Y64.901 E15.90355
G1 X130.191 Y64.912 E15.93285
G1 X130.945 Y64.95 E15.96273
G1 X131.57 Y65.004 E15.98756
G1 X132.918 Y65.209 E16.04152
G1 X133.645 Y65.38 E16.07108
G1 X134.074 Y65.496 E16.08867
G1 X135.193 Y65.828 E16.13487
G1 X136.382 Y66.2 E16.18418
G1 X138.828 Y66.89 E16.28477
G1 X141.268 Y67.504 E16.38435
G1 X143.716 Y68.049 E16.48362
G1 X146.227 Y68.532 E16.58482
G1 X148.721 Y68.939 E16.68484
G1 X150.98 Y69.25 E16.77509
G1 X151.857 Y69.399 E16.8103
G1 X152.755 Y69.601 E16.84673
G1 X153.421 Y69.806 E16.87431
G1 X154.044 Y70.02 E16.90039
G1 X154.901 Y70.357 E16.93683
G1 X155.41 Y70.599 E16.95914
G1 X156.006 Y70.913 E16.9858
G1 X156.373 Y71.119 E17.00246
G1 X157.156 Y71.604 E17.03891
G1 X157.692 Y71.994 E17.06515
G1 X158.209 Y72.396 E17.09107
G1 X158.91 Y72.992 E17.12749
G1 X159.319 Y73.392 E17.15013
G1 X159.8 Y73.902 E17.17788
G1 X160.06 Y74.194 E17.19335
G1 X160.822 Y75.158 E17.24199
G1 X161.226 Y75.753 E17.27045
G1 X161.463 Y76.127 E17.28798
G1 X161.921 Y76.925 E17.3244
G1 X162.135 Y77.361 E17.34362
G1 X162.388 Y77.925 E17.36809
G1 X162.542 Y78.29 E17.38377
G1 X162.989 Y79.574 E17.43758
G1 X163.153 Y80.19 E17.46281
G1 X163.243 Y80.568 E17.47819
G1 X163.453 Y81.743 E17.52543
G1 X163.534 Y82.527 E17.55662
G1 X163.567 Y83.013 E17.5759
G1 X163.59 Y83.582 E17.59844
G1 X163.6 Y84.372 E17.62971
G1 X163.599 Y108.102 E18.56894
G1 X163.589 Y108.851 E18.59859
G1 X163.566 Y109.428 E18.62144
G1 X163.518 Y110.052 E18.64621
G1 X163.483 Y110.404 E18.66021
G1 X163.29 Y111.62 E18.70894
G1 X163.122 Y112.333 E18.73794
G1 X162.93 Y113.032 E18.76663
G1 X162.804 Y113.454 E18.78406
G1 X162.12 Y115.87 E18.88344
G1 X161.497 Y118.335 E18.98407
G1 X160.936 Y120.848 E19.08598
G1 X160.467 Y123.275 E19.18382
G1 X160.055 Y125.788 E19.28461
G1 X159.717 Y128.286 E19.38438
G1 X159.451 Y130.783 E19.48377
G1 X159.251 Y133.339 E19.58525
G1 X159.127 Y135.84 E19.68436
G1 X159.069 Y139.098 E19.81333
G1 X159.068 Y143.603 E19.99163
G1 X159.058 Y144.316 E20.01986
G1 X159.005 Y145.235 E20.05629
G1 X158.873 Y146.146 E20.09272
G1 X158.662 Y147.042 E20.12916
G1 X158.374 Y147.916 E20.16558
G1 X158.011 Y148.763 E20.20205
G1 X157.576 Y149.574 E20.23848
G1 X157.073 Y150.345 E20.27491
G1 X156.504 Y151.069 E20.31136
G1 X155.875 Y151.741 E20.34779
G1 X155.19 Y152.356 E20.38423
G1 X154.454 Y152.909 E20.42066
G1 X153.886 Y153.272 E20.44734
G1 X153.355 Y153.588 E20.4718
G1 X151.127 Y154.961 E20.57538
G1 X149.011 Y156.349 E20.67554
G1 X146.961 Y157.779 E20.77447
G1 X144.909 Y159.298 E20.87552
G1 X142.907 Y160.869 E20.97624
G1 X140.978 Y162.473 E21.07554
G1 X139.457 Y163.805 E21.15556
G1 X138.568 Y164.503 E21.2003
G1 X137.909 Y164.951 E21.23183
G1 X137.554 Y165.175 E21.24845
G1 X136.374 Y165.818 E21.30164
G1 X135.828 Y166.065 E21.32536
G1 X135.427 Y166.235 E21.34259
G1 X134.565 Y166.557 E21.37901
G1 X133.888 Y166.753 E21.40691
G1 X133.275 Y166.908 E21.43194
G1 X131.957 Y167.153 E21.485
G1 X131.173 Y167.234 E21.51619
G1 X130.672 Y167.268 E21.53607
G1 X130.09 Y167.291 E21.55912
G1 X129.329 Y167.3 E21.58924
G1 X105.549 Y167.299 E22.53044
G1 X104.809 Y167.288 E22.55974
G1 X104.05 Y167.249 E22.58982
G1 X103.428 Y167.195 E22.61453
G1 X102.08 Y166.99 E22.66849
G1 X101.357 Y166.819 E22.6979
G1 X100.946 Y166.708 E22.71475
G1 X99.739 Y166.303 E22.76514
G1 X99.061 Y166.018 E22.79425
G1 X98.708 Y165.857 E22.80961
G1 X97.534 Y165.23 E22.86228
G1 X94.845 Y163.568 E22.9874
G1 X92.635 Y162.29 E23.08844
G1 X90.43 Y161.098 E23.18765
G1 X88.174 Y159.959 E23.28768
G1 X85.88 Y158.881 E23.388
G1 X83.589 Y157.883 E23.48691
G1 X81.189 Y156.918 E23.58929
G1 X78.851 Y156.053 E23.68796
G1 X76.446 Y155.24 E23.78844
G1 X73.384 Y154.305 E23.91515
G1 X72.516 Y153.998 E23.95159
G1 X71.678 Y153.618 E23.98801
G1 X70.876 Y153.165 E24.02447
G1 X70.117 Y152.645 E24.06088
G1 X69.405 Y152.061 E24.09733
G1 X68.747 Y151.418 E24.13375
G1 X68.147 Y150.719 E24.17021
G1 X67.61 Y149.972 E24.20662
G1 X67.139 Y149.18 E24.24309
G1 X66.74 Y148.351 E24.2795
G1 X66.413 Y147.49 E24.31596
G1 X66.163 Y146.604 E24.35239
G1 X65.99 Y145.7 E24.38882
G1 X65.885 Y144.517 E24.43583
G1 X65.869 Y143.864 E24.46168
G1 X65.87 Y117.727 E25.49617
G1 X65.881 Y117.018 E25.52424
G1 X65.936 Y116.099 E25.56068
G1 X66.069 Y115.188 E25.59712
G1 X66.282 Y114.292 E25.63357
G1 X66.438 Y113.789 E25.65441
G1 X66.676 Y113.084 E25.68386
G1 X67.486 Y110.566 E25.78855
G1 X68.184 Y108.166 E25.88748
G1 X68.83 Y105.684 E25.98899
G1 X69.4 Y103.205 E26.08967
G1 X69.886 Y100.783 E26.18744
G1 X70.32 Y98.254 E26.289
G1 X70.675 Y95.759 E26.38875
G1 X70.96 Y93.256 E26.48845
G1 X71.176 Y90.718 E26.58927
G1 X71.318 Y88.216 E26.68846
G1 X71.392 Y85.587 E26.79255
G1 X71.412 Y83.564 E26.87263
G1 X71.45 Y82.756 E26.90464
G1 X71.504 Y82.13 E26.92951
G1 X71.623 Y81.217 E26.96595
G1 X71.729 Y80.692 E26.98715
G1 X71.878 Y80.071 E27.01243
G1 X71.99 Y79.654 E27.02952
G1 X72.427 Y78.364 E27.08343
G1 X72.672 Y77.785 E27.10831
G1 X72.831 Y77.434 E27.12356
G1 X73.468 Y76.239 E27.17716
G1 X73.845 Y75.646 E27.20497
G1 X74.076 Y75.305 E27.22127
G1 X74.848 Y74.3 E27.27143
G1 X75.302 Y73.792 E27.2984
G1 X75.645 Y73.43 E27.31813
G0 F6000 X75.936 Y73.705
G1 F1200 X76.585 Y73.078 E27.35385
G1 X77.171 Y72.598 E27.38383
G1 X77.649 Y72.235 E27.40759
G1 X78.392 Y71.721 E27.44335
G1 X79.068 Y71.327 E27.47432
G1 X79.678 Y71.004 E27.50164
G1 X80.755 Y70.52 E27.54837
G1 X81.463 Y70.264 E27.57817
G1 X81.872 Y70.131 E27.59519
G1 X83.17 Y69.801 E27.6482
G1 X83.787 Y69.693 E27.67299
G1 X84.668 Y69.561 E27.70825
G1 X86.566 Y69.301 E27.78407
G1 X89.029 Y68.894 E27.88288
G1 X91.549 Y68.404 E27.98449
G1 X93.99 Y67.858 E28.08349
G1 X96.503 Y67.219 E28.18612
G1 X98.929 Y66.528 E28.28596
G1 X100.806 Y65.947 E28.36372
G1 X101.405 Y65.782 E28.38832
G1 X101.905 Y65.66 E28.40869
G1 X103.092 Y65.444 E28.45644
G1 X103.854 Y65.365 E28.48676
G1 X104.355 Y65.331 E28.50664
G1 X104.916 Y65.309 E28.52886
G1 X105.672 Y65.3 E28.55878
G1 X129.445 Y65.301 E29.49971
G1 X130.185 Y65.312 E29.529
G1 X130.911 Y65.349 E29.55777
G1 X131.536 Y65.403 E29.5826
G1 X132.832 Y65.599 E29.63448
G1 X133.54 Y65.767 E29.66328
G1 X134.23 Y65.957 E29.6916
G1 X135.074 Y66.21 E29.72648
G1 X136.26 Y66.581 E29.77566
G1 X138.735 Y67.279 E29.87744
G1 X141.155 Y67.888 E29.97621
G1 X143.659 Y68.445 E30.07774
G1 X146.153 Y68.926 E30.17827
G1 X148.682 Y69.338 E30.27969
G1 X150.926 Y69.647 E30.36934
G1 X151.786 Y69.793 E30.40387
G1 X152.667 Y69.992 E30.43962
G1 X153.291 Y70.184 E30.46546
G1 X153.914 Y70.398 E30.49153
G1 X154.754 Y70.729 E30.52726
G1 X155.228 Y70.955 E30.54805
G1 X155.811 Y71.261 E30.57411
G1 X156.178 Y71.467 E30.59077
G1 X156.945 Y71.944 E30.62651
G1 X157.446 Y72.31 E30.65107
G1 X157.963 Y72.712 E30.67699
G1 X158.651 Y73.297 E30.71274
G1 X159.031 Y73.67 E30.73381
G1 X159.501 Y74.168 E30.76091
G1 X159.761 Y74.46 E30.77639
G1 X160.495 Y75.388 E30.82322
G1 X160.888 Y75.967 E30.85092
G1 X161.125 Y76.341 E30.86844
G1 X161.771 Y77.529 E30.92196
G1 X162.02 Y78.081 E30.94593
G1 X162.174 Y78.446 E30.96161
G1 X162.604 Y79.681 E31.01337
G1 X162.764 Y80.282 E31.03799
G1 X162.854 Y80.66 E31.05336
G1 X163.056 Y81.792 E31.09888
G1 X163.135 Y82.554 E31.1292
G1 X163.168 Y83.04 E31.14848
G1 X163.19 Y83.588 E31.17019
G1 X163.2 Y84.372 E31.20122
G1 X163.199 Y108.096 E32.1402
G1 X163.189 Y108.845 E32.16985
G1 X163.166 Y109.401 E32.19188
G1 X163.12 Y110.012 E32.21613
G1 X163.085 Y110.364 E32.23013
G1 X162.899 Y111.535 E32.27706
G1 X162.736 Y112.229 E32.30527
G1 X162.547 Y112.917 E32.33351
G1 X161.725 Y115.801 E32.45221
G1 X161.113 Y118.222 E32.55104
G1 X160.547 Y120.757 E32.65385
G1 X160.068 Y123.24 E32.75393
G1 X159.663 Y125.706 E32.85285
G1 X159.318 Y128.257 E32.95473
G1 X159.053 Y130.746 E33.0538
G1 X158.853 Y133.288 E33.15472
G1 X158.727 Y135.845 E33.25605
G1 X158.669 Y139.091 E33.38455
G1 X158.668 Y143.597 E33.56289
G1 X158.658 Y144.31 E33.59112
G1 X158.605 Y145.212 E33.62688
G1 X158.473 Y146.105 E33.66261
G1 X158.263 Y146.983 E33.69834
G1 X157.975 Y147.839 E33.73408
G1 X157.613 Y148.667 E33.76985
G1 X157.179 Y149.459 E33.8056
G1 X156.677 Y150.209 E33.84132
G1 X156.11 Y150.912 E33.87706
G1 X155.483 Y151.563 E33.91284
G1 X154.802 Y152.155 E33.94855
G1 X154.07 Y152.685 E33.98432
G1 X153.681 Y152.929 E34.0025
G1 X153.097 Y153.277 E34.0294
G1 X150.92 Y154.619 E34.13062
G1 X148.792 Y156.014 E34.23133
G1 X146.716 Y157.462 E34.33151
G1 X144.67 Y158.977 E34.43228
G1 X142.689 Y160.531 E34.53193
G1 X140.7 Y162.185 E34.63432
G1 X139.194 Y163.504 E34.71355
G1 X138.338 Y164.176 E34.75663
