;FLAVOR:Marlin
;TIME:945
;Filament used: 0.510864m
;Layer height: 0.16
;MINX:84.687
;MINY:82.136
;MINZ:0.2
;MAXX:145.401
;MAXY:147.871
;MAXZ:12.42
;Generated with Cura_SteamEngine 5.2.1
M140 S60
M105
M190 S60
M104 S200
M105
M109 S200
M82 ;absolute extrusion mode
; Ender 3 Custom Start G-code
G92 E0 ; Reset Extruder
G28 ; Home all axes
G1 Z2.0 F3000 ; Move Z Axis up little to prevent scratching of Heat Bed
G1 X0.1 Y20 Z0.3 F5000.0 ; Move to start position
G1 X0.1 Y200.0 Z0.3 F1500.0 E15 ; Draw the first line
G1 X0.4 Y200.0 Z0.3 F5000.0 ; Move to side a little
G1 X0.4 Y20 Z0.3 F1500.0 E30 ; Draw the second line
G92 E0 ; Reset Extruder
G1 Z2.0 F3000 ; Move Z Axis up little to prevent scratching of Heat Bed
G1 X5 Y20 Z0.3 F5000.0 ; Move over to prevent blob squish
G92 E0
G92 E0
G1 F3000 E-3
;LAYER_COUNT:53
;LAYER:0
M107
G0 F6000 X89.578 Y97.999 Z0.2
;TYPE:SKIRT
G1 F3000 E0
G1 F1200 X90.157 Y97.502 E0.02538
G1 X90.426 Y97.287 E0.03683
G1 X91.349 Y96.625 E0.07461
G1 X92.456 Y95.914 E0.11837
G1 X94.638 Y94.467 E0.20545
G1 X96.663 Y93.043 E0.28779
G1 X98.714 Y91.509 E0.37298
G1 X100.657 Y89.969 E0.45544
G1 X102.605 Y88.335 E0.54
G1 X104.599 Y86.562 E0.62875
G1 X105.423 Y85.811 E0.66583
G1 X106.192 Y85.171 E0.69911
G1 X106.616 Y84.85 E0.71679
G1 X107.388 Y84.316 E0.74802
G1 X107.947 Y83.986 E0.76961
G1 X108.29 Y83.797 E0.78263
G1 X109.13 Y83.38 E0.81382
G1 X109.806 Y83.105 E0.8381
G1 X110.228 Y82.95 E0.85305
G1 X111.181 Y82.649 E0.88629
G1 X111.428 Y82.583 E0.89479
G1 X112.258 Y82.395 E0.9231
G1 X112.57 Y82.337 E0.93365
G1 X113.917 Y82.172 E0.97879
G1 X114.414 Y82.142 E0.99535
G1 X115.719 Y82.136 E1.03875
G1 X116.713 Y82.225 E1.07195
G1 X117.129 Y82.279 E1.0859
G1 X118.053 Y82.439 E1.11709
G1 X118.642 Y82.584 E1.13726
G1 X118.928 Y82.663 E1.14713
G1 X119.693 Y82.905 E1.17382
G1 X120.066 Y83.038 E1.18699
G1 X121.327 Y83.571 E1.23252
G1 X122.206 Y84.048 E1.26579
G1 X122.531 Y84.241 E1.27836
G1 X123.438 Y84.843 E1.31457
G1 X123.7 Y85.036 E1.32539
G1 X124.45 Y85.641 E1.35744
G1 X126.487 Y87.436 E1.44774
G1 X128.425 Y89.056 E1.53175
G1 X130.417 Y90.627 E1.61613
G1 X132.424 Y92.119 E1.69931
G1 X134.488 Y93.565 E1.78313
G1 X136.578 Y94.942 E1.86638
G1 X137.695 Y95.633 E1.91006
G1 X138.662 Y96.249 E1.9482
G1 X139.43 Y96.787 E1.97938
G1 X139.971 Y97.229 E2.00262
G1 X140.384 Y97.589 E2.02084
G1 X140.989 Y98.158 E2.04846
G1 X141.343 Y98.517 E2.06523
G1 X141.972 Y99.212 E2.09641
G1 X142.464 Y99.85 E2.12321
G1 X142.798 Y100.318 E2.14233
G1 X143.309 Y101.104 E2.17351
G1 X143.614 Y101.654 E2.19443
G1 X143.838 Y102.087 E2.21064
G1 X144.233 Y102.937 E2.24182
G1 X144.554 Y103.819 E2.27304
G1 X144.799 Y104.724 E2.30422
G1 X144.966 Y105.647 E2.33542
G1 X145.054 Y106.581 E2.36662
G1 X145.063 Y107.459 E2.39583
G1 X145.029 Y108.621 E2.43449
G1 X144.988 Y111.305 E2.52377
G1 X145.021 Y113.821 E2.60746
G1 X145.125 Y116.32 E2.69065
G1 X145.322 Y119.095 E2.78318
G1 X145.363 Y119.562 E2.79877
G1 X145.401 Y120.802 E2.84003
G1 X145.381 Y121.585 E2.86608
G1 X145.318 Y122.521 E2.89729
G1 X145.135 Y123.637 E2.9349
G1 X145.023 Y124.153 E2.95246
G1 X144.659 Y125.443 E2.99704
G1 X144.479 Y125.959 E3.01522
G1 X143.993 Y127.141 E3.05773
G1 X143.61 Y127.884 E3.08553
G1 X143.435 Y128.198 E3.09748
G1 X142.773 Y129.242 E3.1386
G1 X142.414 Y129.744 E3.15913
G1 X141.837 Y130.483 E3.19031
G1 X141.313 Y131.055 E3.21611
G1 X140.804 Y131.573 E3.24027
G1 X140.119 Y132.213 E3.27145
G1 X139.166 Y132.944 E3.31139
G1 X138.755 Y133.225 E3.32795
G1 X137.851 Y133.814 E3.36384
G1 X135.67 Y135.265 E3.45097
G1 X133.637 Y136.703 E3.53379
G1 X131.606 Y138.227 E3.61824
G1 X129.657 Y139.778 E3.70109
G1 X127.713 Y141.417 E3.78566
G1 X125.82 Y143.107 E3.87006
G1 X124.596 Y144.232 E3.92536
G1 X123.879 Y144.837 E3.95656
G1 X123.343 Y145.226 E3.97859
G1 X122.948 Y145.495 E3.99448
G1 X121.811 Y146.173 E4.03851
G1 X121.438 Y146.366 E4.05248
G1 X120.342 Y146.859 E4.09245
G1 X120.062 Y146.967 E4.10243
G1 X119.017 Y147.311 E4.13902
G1 X118.693 Y147.4 E4.1502
G1 X117.49 Y147.659 E4.19113
G1 X117.02 Y147.733 E4.20695
G1 X115.673 Y147.861 E4.25196
G1 X115.371 Y147.871 E4.26201
G1 X114.199 Y147.847 E4.301
G1 X113.778 Y147.816 E4.31504
G1 X112.46 Y147.639 E4.35927
G1 X111.866 Y147.522 E4.3794
G1 X110.955 Y147.301 E4.41058
G1 X110.065 Y147.004 E4.44179
G1 X109.541 Y146.788 E4.46064
G1 X109.08 Y146.584 E4.47741
G1 X108.184 Y146.138 E4.5107
G1 X107.819 Y145.935 E4.52459
G1 X107.02 Y145.445 E4.55576
G1 X106.378 Y144.981 E4.58211
G1 X105.655 Y144.389 E4.61319
G1 X104.635 Y143.479 E4.65865
G1 X104.204 Y143.081 E4.67816
G1 X102.308 Y141.41 E4.76222
G1 X100.364 Y139.792 E4.84634
G1 X98.395 Y138.246 E4.92961
G1 X96.371 Y136.747 E5.01338
G1 X94.289 Y135.294 E5.09782
G1 X92.504 Y134.116 E5.16895
G1 X91.407 Y133.41 E5.21234
G1 X90.801 Y132.991 E5.23685
G1 X90.525 Y132.786 E5.24828
G1 X89.816 Y132.212 E5.27862
G1 X89.574 Y131.999 E5.28935
G1 X88.863 Y131.314 E5.32218
G1 X88.677 Y131.118 E5.33117
G1 X88.094 Y130.452 E5.36061
G1 X87.848 Y130.147 E5.37364
G1 X87.192 Y129.243 E5.41079
G1 X86.968 Y128.899 E5.42445
G1 X86.426 Y127.982 E5.45987
G1 X86.04 Y127.19 E5.48918
G1 X85.912 Y126.903 E5.49963
G1 X85.552 Y125.989 E5.5323
G1 X85.419 Y125.601 E5.54594
G1 X85.128 Y124.6 E5.58062
G1 X85.057 Y124.304 E5.59074
G1 X84.87 Y123.368 E5.62249
G1 X84.754 Y122.413 E5.65448
G1 X84.725 Y122.064 E5.66613
G1 X84.687 Y121.084 E5.69875
G1 X84.696 Y120.429 E5.72054
G1 X84.725 Y119.638 E5.74687
G1 X84.796 Y118.227 E5.79385
G1 X84.852 Y115.737 E5.87669
G1 X84.837 Y113.235 E5.95991
G1 X84.688 Y109.389 E6.08793
G1 X84.703 Y108.245 E6.12598
G1 X84.724 Y107.924 E6.13668
G1 X84.81 Y107.097 E6.16433
G1 X84.873 Y106.653 E6.17925
G1 X85.151 Y105.306 E6.22499
G1 X85.245 Y104.961 E6.23689
G1 X85.487 Y104.173 E6.2643
G1 X85.823 Y103.305 E6.29526
G1 X85.961 Y102.985 E6.30685
G1 X86.38 Y102.12 E6.33882
G1 X86.538 Y101.827 E6.34989
G1 X87.02 Y101.017 E6.38124
G1 X87.216 Y100.718 E6.39313
G1 X87.826 Y99.877 E6.42769
G1 X88.022 Y99.632 E6.43812
G1 X88.594 Y98.973 E6.46715
G1 X88.795 Y98.759 E6.47691
G1 X89.366 Y98.194 E6.50363
G1 X89.578 Y97.999 E6.51321
G0 F6000 X89.849 Y98.293
G1 F1200 X90.407 Y97.815 E6.53765
G1 X90.676 Y97.6 E6.5491
G1 X91.565 Y96.962 E6.58549
G1 X92.687 Y96.241 E6.62985
G1 X94.843 Y94.812 E6.71588
G1 X96.926 Y93.346 E6.8006
G1 X98.939 Y91.841 E6.8842
G1 X100.917 Y90.274 E6.96813
G1 X102.862 Y88.642 E7.05258
G1 X104.807 Y86.913 E7.13913
G1 X105.692 Y86.106 E7.17897
G1 X106.434 Y85.49 E7.21104
G1 X106.858 Y85.169 E7.22873
G1 X107.615 Y84.645 E7.25935
G1 X108.14 Y84.336 E7.27961
G1 X108.483 Y84.147 E7.29264
G1 X109.308 Y83.738 E7.32327
G1 X109.944 Y83.481 E7.34608
G1 X110.366 Y83.326 E7.36103
G1 X111.285 Y83.035 E7.3931
G1 X111.532 Y82.969 E7.4016
G1 X112.331 Y82.789 E7.42884
G1 X112.643 Y82.731 E7.4394
G1 X113.941 Y82.571 E7.48289
G1 X114.438 Y82.541 E7.49945
G1 X115.698 Y82.535 E7.54136
G1 X116.662 Y82.621 E7.57355
G1 X117.078 Y82.675 E7.58751
G1 X117.984 Y82.833 E7.61809
G1 X118.535 Y82.97 E7.63698
G1 X118.821 Y83.049 E7.64685
G1 X119.559 Y83.282 E7.67259
G1 X119.932 Y83.415 E7.68576
G1 X121.15 Y83.93 E7.72974
G1 X122.001 Y84.392 E7.76195
G1 X122.326 Y84.585 E7.77452
G1 X123.201 Y85.165 E7.80944
G1 X123.463 Y85.358 E7.82026
G1 X124.186 Y85.941 E7.85115
G1 X126.226 Y87.739 E7.94159
G1 X128.188 Y89.378 E8.02662
G1 X130.176 Y90.947 E8.11086
G1 X132.185 Y92.44 E8.19411
G1 X134.261 Y93.894 E8.27841
G1 X136.369 Y95.283 E8.36237
G1 X137.484 Y95.973 E8.40598
G1 X138.446 Y96.586 E8.44392
G1 X139.2 Y97.115 E8.47456
G1 X139.708 Y97.531 E8.4964
G1 X140.121 Y97.891 E8.51462
G1 X140.704 Y98.438 E8.54121
G1 X141.058 Y98.797 E8.55798
G1 X141.675 Y99.48 E8.58859
G1 X142.138 Y100.082 E8.61385
G1 X142.472 Y100.55 E8.63297
G1 X142.974 Y101.322 E8.6636
G1 X143.259 Y101.838 E8.68321
G1 X143.483 Y102.271 E8.69942
G1 X143.87 Y103.106 E8.73003
G1 X144.183 Y103.972 E8.76066
G1 X144.42 Y104.861 E8.79126
G1 X144.579 Y105.768 E8.82189
G1 X144.658 Y106.685 E8.8525
G1 X144.664 Y107.448 E8.87788
G1 X144.628 Y108.704 E8.91967
G1 X144.588 Y111.282 E9.00542
G1 X144.621 Y113.809 E9.08948
G1 X144.728 Y116.363 E9.1745
G1 X144.922 Y119.1 E9.26576
G1 X144.965 Y119.597 E9.28235
G1 X145.002 Y120.792 E9.32212
G1 X144.982 Y121.575 E9.34817
G1 X144.918 Y122.493 E9.37878
G1 X144.744 Y123.552 E9.41447
G1 X144.632 Y124.068 E9.43203
G1 X144.282 Y125.311 E9.47498
G1 X144.102 Y125.827 E9.49316
G1 X143.631 Y126.97 E9.53428
G1 X143.26 Y127.689 E9.56119
G1 X143.085 Y128.003 E9.57314
G1 X142.448 Y129.009 E9.61275
G1 X142.089 Y129.511 E9.63327
G1 X141.522 Y130.236 E9.66389
G1 X141.028 Y130.774 E9.68818
G1 X140.519 Y131.292 E9.71233
G1 X139.846 Y131.92 E9.74295
G1 X138.941 Y132.613 E9.78086
G1 X138.303 Y133.045 E9.80649
G1 X137.651 Y133.466 E9.8323
G1 X135.447 Y134.934 E9.92038
G1 X133.389 Y136.39 E10.00423
G1 X131.363 Y137.91 E10.08847
G1 X129.396 Y139.475 E10.17207
G1 X127.472 Y141.096 E10.25575
G1 X125.493 Y142.863 E10.34399
G1 X124.325 Y143.937 E10.39676
G1 X123.621 Y144.531 E10.4274
G1 X123.118 Y144.895 E10.44805
G1 X122.723 Y145.164 E10.46395
G1 X121.627 Y145.817 E10.50638
G1 X121.254 Y146.01 E10.52035
G1 X120.198 Y146.486 E10.55887
G1 X119.918 Y146.594 E10.56886
G1 X118.911 Y146.925 E10.60411
G1 X118.587 Y147.014 E10.61529
G1 X117.428 Y147.264 E10.65472
G1 X116.958 Y147.338 E10.67055
G1 X115.66 Y147.461 E10.71391
G1 X115.358 Y147.471 E10.72396
G1 X114.229 Y147.448 E10.76152
G1 X113.808 Y147.417 E10.77556
G1 X112.537 Y147.246 E10.81822
G1 X111.943 Y147.129 E10.83835
G1 X111.049 Y146.912 E10.86895
G1 X110.176 Y146.618 E10.89959
G1 X109.703 Y146.422 E10.91662
G1 X109.242 Y146.218 E10.93338
G1 X108.379 Y145.789 E10.96544
G1 X108.014 Y145.586 E10.97933
G1 X107.229 Y145.104 E11.00997
G1 X106.618 Y144.661 E11.03507
G1 X105.921 Y144.091 E11.06502
G1 X104.901 Y143.181 E11.11048
G1 X104.46 Y142.773 E11.13046
G1 X102.562 Y141.101 E11.21459
G1 X100.621 Y139.485 E11.2986
G1 X98.657 Y137.943 E11.38165
G1 X96.592 Y136.414 E11.46711
G1 X94.516 Y134.965 E11.55131
G1 X92.698 Y133.765 E11.62376
G1 X91.623 Y133.073 E11.66628
G1 X91.04 Y132.67 E11.68986
G1 X90.764 Y132.465 E11.70129
G1 X90.081 Y131.912 E11.73052
G1 X89.839 Y131.699 E11.74124
G1 X89.153 Y131.039 E11.77291
G1 X88.967 Y130.843 E11.78189
G1 X88.405 Y130.201 E11.81027
G1 X88.159 Y129.896 E11.8233
G1 X87.527 Y129.025 E11.8591
G1 X87.303 Y128.681 E11.87275
G1 X86.781 Y127.795 E11.90695
G1 X86.405 Y127.027 E11.93539
G1 X86.277 Y126.74 E11.94585
G1 X85.931 Y125.859 E11.97733
G1 X85.798 Y125.471 E11.99097
G1 X85.517 Y124.506 E12.0244
G1 X85.446 Y124.21 E12.03452
G1 X85.266 Y123.305 E12.06521
G1 X85.152 Y122.38 E12.09621
G1 X85.123 Y122.031 E12.10786
G1 X85.087 Y121.087 E12.13928
G1 X85.096 Y120.444 E12.16067
G1 X85.125 Y119.653 E12.18699
G1 X85.195 Y118.256 E12.23352
G1 X85.252 Y115.744 E12.31709
G1 X85.237 Y113.217 E12.40114
G1 X85.088 Y109.374 E12.52905
G1 X85.103 Y108.271 E12.56574
G1 X85.124 Y107.95 E12.57644
G1 X85.206 Y107.153 E12.60309
G1 X85.269 Y106.709 E12.618
G1 X85.537 Y105.411 E12.66209
G1 X85.631 Y105.066 E12.67398
G1 X85.866 Y104.302 E12.70056
G1 X86.191 Y103.463 E12.73049
G1 X86.329 Y103.143 E12.74208
G1 X86.732 Y102.31 E12.77286
G1 X86.89 Y102.017 E12.78393
G1 X87.355 Y101.237 E12.81413
G1 X87.551 Y100.938 E12.82602
G1 X88.139 Y100.127 E12.85934
G1 X88.335 Y99.882 E12.86978
G1 X88.886 Y99.247 E12.89774
G1 X89.087 Y99.033 E12.90751
G1 X89.637 Y98.488 E12.93326
G1 X89.849 Y98.293 E12.94284
G0 F6000 X90.12 Y98.588
G1 F1200 X90.657 Y98.127 E12.96638
G1 X90.926 Y97.912 E12.97783
G1 X91.781 Y97.298 E13.01284
G1 X92.919 Y96.567 E13.05783
G1 X95.072 Y95.14 E13.14374
G1 X97.15 Y93.677 E13.22826
G1 X99.199 Y92.146 E13.31334
G1 X101.16 Y90.591 E13.39658
G1 X103.139 Y88.931 E13.48249
G1 X105.061 Y87.222 E13.56803
G1 X105.961 Y86.402 E13.60853
G1 X106.675 Y85.809 E13.6394
G1 X107.099 Y85.488 E13.65709
G1 X107.843 Y84.975 E13.68714
G1 X108.333 Y84.686 E13.70606
G1 X108.676 Y84.497 E13.71909
G1 X109.486 Y84.097 E13.74914
G1 X110.082 Y83.856 E13.77052
G1 X110.504 Y83.701 E13.78547
G1 X111.388 Y83.422 E13.8163
G1 X111.635 Y83.356 E13.82481
G1 X112.404 Y83.182 E13.85103
G1 X112.716 Y83.124 E13.86158
G1 X113.965 Y82.971 E13.90344
G1 X114.462 Y82.941 E13.92
G1 X115.678 Y82.935 E13.96044
G1 X116.61 Y83.018 E13.99156
G1 X117.026 Y83.072 E14.00552
G1 X117.916 Y83.228 E14.03557
G1 X118.429 Y83.355 E14.05315
G1 X118.715 Y83.434 E14.06301
G1 X119.425 Y83.658 E14.08778
G1 X119.798 Y83.791 E14.10095
G1 X120.973 Y84.289 E14.14339
G1 X121.797 Y84.736 E14.17457
G1 X122.122 Y84.929 E14.18714
G1 X122.964 Y85.487 E14.22074
G1 X123.226 Y85.68 E14.23156
G1 X123.921 Y86.241 E14.26127
G1 X125.95 Y88.029 E14.35122
G1 X127.93 Y89.684 E14.43705
G1 X129.936 Y91.266 E14.52202
G1 X131.956 Y92.767 E14.60573
G1 X134.041 Y94.228 E14.6904
G1 X136.144 Y95.614 E14.77417
G1 X137.274 Y96.313 E14.81837
G1 X138.231 Y96.923 E14.85611
G1 X138.97 Y97.442 E14.88615
G1 X139.445 Y97.832 E14.90659
G1 X139.858 Y98.192 E14.92481
G1 X140.419 Y98.719 E14.95041
G1 X140.773 Y99.078 E14.96718
G1 X141.378 Y99.749 E14.99723
G1 X141.812 Y100.315 E15.02095
G1 X142.146 Y100.783 E15.04008
G1 X142.638 Y101.54 E15.07011
G1 X142.904 Y102.021 E15.08839
G1 X143.128 Y102.454 E15.1046
G1 X143.507 Y103.274 E15.13465
G1 X143.812 Y104.124 E15.16468
G1 X144.04 Y104.998 E15.19473
G1 X144.191 Y105.888 E15.22475
G1 X144.262 Y106.789 E15.25481
G1 X144.264 Y107.436 E15.27633
G1 X144.228 Y108.686 E15.31792
G1 X144.188 Y111.282 E15.40428
G1 X144.221 Y113.831 E15.48906
G1 X144.327 Y116.375 E15.57375
G1 X144.525 Y119.161 E15.66665
G1 X144.566 Y119.632 E15.68237
G1 X144.602 Y120.781 E15.72061
G1 X144.582 Y121.564 E15.74666
G1 X144.519 Y122.465 E15.7767
G1 X144.353 Y123.468 E15.81051
G1 X144.241 Y123.984 E15.82807
G1 X143.904 Y125.18 E15.8694
G1 X143.724 Y125.696 E15.88758
G1 X143.3 Y126.725 E15.92459
G1 X142.911 Y127.495 E15.95329
G1 X142.736 Y127.809 E15.96524
G1 X142.123 Y128.776 E16.00332
G1 X141.764 Y129.278 E16.02385
G1 X141.206 Y129.989 E16.05391
G1 X140.742 Y130.494 E16.07672
G1 X140.233 Y131.012 E16.10088
G1 X139.573 Y131.628 E16.1309
G1 X138.715 Y132.283 E16.16681
G1 X138.086 Y132.709 E16.19207
G1 X137.417 Y133.141 E16.21856
G1 X135.216 Y134.607 E16.30652
G1 X133.164 Y136.059 E16.39013
G1 X131.119 Y137.592 E16.47513
G1 X129.134 Y139.172 E16.55951
G1 X127.213 Y140.791 E16.64307
G1 X125.239 Y142.554 E16.7311
G1 X124.054 Y143.643 E16.78463
G1 X123.363 Y144.224 E16.81466
G1 X122.892 Y144.565 E16.834
G1 X122.497 Y144.834 E16.84989
G1 X121.443 Y145.462 E16.8907
G1 X121.07 Y145.655 E16.90467
G1 X120.054 Y146.113 E16.94173
G1 X119.774 Y146.221 E16.95172
G1 X118.805 Y146.54 E16.98565
G1 X118.481 Y146.629 E16.99682
G1 X117.365 Y146.869 E17.03479
G1 X116.895 Y146.943 E17.05061
G1 X115.647 Y147.061 E17.09231
G1 X115.345 Y147.071 E17.10236
G1 X114.258 Y147.049 E17.13852
G1 X113.837 Y147.018 E17.15256
G1 X112.615 Y146.854 E17.19357
G1 X112.021 Y146.737 E17.2137
G1 X111.143 Y146.523 E17.24376
G1 X110.288 Y146.233 E17.27379
G1 X109.864 Y146.057 E17.28906
G1 X109.403 Y145.853 E17.30583
G1 X108.573 Y145.439 E17.33667
G1 X108.208 Y145.236 E17.35057
G1 X107.439 Y144.763 E17.38059
G1 X106.858 Y144.341 E17.40448
G1 X106.188 Y143.792 E17.43329
G1 X105.168 Y142.882 E17.47875
G1 X104.746 Y142.492 E17.49786
G1 X102.819 Y140.795 E17.58327
G1 X100.879 Y139.18 E17.66722
G1 X98.857 Y137.593 E17.75272
G1 X96.854 Y136.108 E17.83565
G1 X94.744 Y134.636 E17.92122
G1 X92.897 Y133.417 E17.99482
G1 X91.84 Y132.737 E18.03662
G1 X91.278 Y132.348 E18.05936
G1 X91.002 Y132.143 E18.07079
G1 X90.345 Y131.612 E18.09889
G1 X90.103 Y131.399 E18.10961
G1 X89.443 Y130.763 E18.1401
G1 X89.257 Y130.567 E18.14908
G1 X88.717 Y129.95 E18.17635
G1 X88.471 Y129.645 E18.18939
G1 X87.862 Y128.807 E18.22384
G1 X87.638 Y128.463 E18.2375
G1 X87.134 Y127.607 E18.27053
G1 X86.77 Y126.864 E18.29805
G1 X86.642 Y126.577 E18.30851
G1 X86.309 Y125.729 E18.33881
G1 X86.176 Y125.341 E18.35245
G1 X85.906 Y124.413 E18.38459
G1 X85.835 Y124.117 E18.39472
G1 X85.66 Y123.24 E18.42446
G1 X85.551 Y122.347 E18.45438
G1 X85.522 Y121.998 E18.46603
G1 X85.487 Y121.089 E18.49629
G1 X85.496 Y120.458 E18.51728
G1 X85.531 Y119.524 E18.54836
